!!!!SEGMENT: pl-cz--iii-194--006_elsner-jozef--missa-f-op-41-agnus.krn
!!!cenid: 18xx:245
!!!COM: Elsner, Józef
!!!COM-rismid: pe30000957
!!!CDT: 1769/06/01-1854/04/18
!!!CNT: Polish
!!!OPR: Missa F op. 41
!!!OTL: Agnus
!!!OMV: 006
!!!PDT: 1836
!!!AGN: Sacred; Mass
!!!SMS-siglum: PL-CZ
!!!SMS-shelfmark: III-194
!!!SMS-shelfwork: 001-006 M
!!!NIFC-rismid:
!!!URL-scan: http://repozytorium.nifc.pl/skany/pl-cz-nut--iii-194
!!!ONB-nifc: UWAGA: części Mszy: Kyrie, Gloria, Credo, Sanctus, Benedictus, Agnus, Dona nobis
**kern	**dynam	**kern	**dynam	**kern	**dynam	**kern	**dynam	**kern	**dynam	**kern	**dynam	**kern	**text	**kern	**text	**kern	**text	**kern	**text	**kern	**kern	**dynam	**kern	**dynam	**kern	**dynam	**kern	**dynam	**kern	**dynam	**kern	**dynam	**kern	**dynam	**kern	**dynam	**kern	**dynam	**kern	**dynam	**kern	**dynam	**kern	**dynam
*part22	*	*part22	*part22	*part21	*part21	*part20	*part20	*part19	*part19	*part18	*part18	*part17	*part17	*part16	*part16	*part15	*part15	*part14	*part14	*part13	*part12	*part12	*part11	*part11	*part10	*part10	*part9	*part9	*part8	*part8	*part7	*part7	*part6	*part6	*part5	*part5	*part4	*part4	*part3	*part3	*part2	*part2	*part1	*part1
*staff23	*	*staff22	*	*staff21	*	*staff20	*	*staff19	*	*staff18	*	*staff17	*staff17	*staff16	*staff16	*staff15	*staff15	*staff14	*staff14	*staff13	*staff12	*	*staff11	*	*staff10	*	*staff9	*	*staff8	*	*staff7	*	*staff6	*	*staff5	*	*staff4	*	*staff3	*	*staff2	*	*staff1	*
*Iorgan	*	*Iempty	*	*Icello/cbass	*	*Iviola	*	*Ivioln	*	*Ivioln	*	*Ibass	*	*Itenor	*	*Ialto	*	*Ivox	*	*Itimp	*Itromt	*	*Iempty	*	*Iempty	*	*Icor	*	*Icor	*	*Ifagot	*	*Ifagot	*	*Iclars	*	*Iclars	*	*Ioboe	*	*Ioboe	*	*Iflt	*
*I"Organo.	*	*	*	*I"Violoncello et Baſso	*	*I"Viola	*	*I"Violino 2do	*	*I"Violino Imo	*	*I"Basso.	*	*I"Tenore.	*	*I"Alto.	*	*I"Canto	*	*I"Tympano in C.F.	*I"Trombono.	*	*I"Clarino Secondo in B.	*	*I"Clarino 1mo in B.	*	*I"Corno 2do in F.	*	*I"Corno 1mo in F.	*	*I"Fagotto 2do	*	*I"Fagotto 1mo.	*	*I"Clarinetto 2do in B.	*	*I"Clarinetto Imo in B.	*	*I"Oboe 2do	*	*I"Oboe 1mo	*	*I"Flauto 2do	*
*I'Org.	*	*	*	*I'Vc.	*	*I'Vla.	*	*I'Vln. II	*	*I'Vln. I	*	*I'B.	*	*I'T.	*	*I'A.	*	*I'S.	*	*I'Timp.	*I'Tbn.	*	*I'Tpt.	*	*I'Tpt.	*	*I'Hn.	*	*I'Hn.	*	*I'Bsn.	*	*I'Bsn.	*	*I'Cl.	*	*I'Cl.	*	*I'Ob.	*	*I'Ob.	*	*I'Fl.	*
*clefF4	*	*clefG2	*	*clefF4	*	*clefC3	*	*clefG2	*	*clefG2	*	*clefF4	*	*clefC4	*	*clefC3	*	*clefC1	*	*clefF4	*clefF4	*	*clefG2	*	*clefG2	*	*clefG2	*	*clefG2	*	*clefF4	*	*clefF4	*	*clefG2	*	*clefG2	*	*clefG2	*	*clefG2	*	*clefG2	*
*	*	*	*	*	*	*	*	*	*	*	*	*	*	*	*	*	*	*	*	*ITrd-3c-5	*	*	*ITrd1c2	*	*ITrd1c2	*	*ITrd4c7	*	*ITrd4c7	*	*	*	*	*	*ITrd1c2	*	*ITrd1c2	*	*	*	*	*	*	*
*k[b-]	*	*k[b-]	*	*k[b-]	*	*k[b-]	*	*k[b-]	*	*k[b-]	*	*k[b-]	*	*k[b-]	*	*k[b-]	*	*k[b-]	*	*k[b-]	*k[b-]	*	*k[b-e-]	*	*k[b-e-]	*	*k[b-]	*	*k[b-]	*	*k[b-]	*	*k[b-]	*	*k[b-]	*	*k[b-]	*	*k[b-]	*	*k[b-]	*	*k[b-]	*
*F:	*	*F:	*	*F:	*	*F:	*	*F:	*	*F:	*	*F:	*	*F:	*	*F:	*	*F:	*	*	*F:	*	*	*	*	*	*	*	*	*	*F:	*	*F:	*	*F:	*	*F:	*	*F:	*	*F:	*	*F:	*
*M3/4	*	*M3/4	*	*M3/4	*	*M3/4	*	*M3/4	*	*M3/4	*	*M3/4	*	*M3/4	*	*M3/4	*	*M3/4	*	*M3/4	*M3/4	*	*M3/4	*	*M3/4	*	*M3/4	*	*M3/4	*	*M3/4	*	*M3/4	*	*M3/4	*	*M3/4	*	*M3/4	*	*M3/4	*	*M3/4	*
=1	=1	=1	=1	=1	=1	=1	=1	=1	=1	=1	=1	=1	=1	=1	=1	=1	=1	=1	=1	=1	=1	=1	=1	=1	=1	=1	=1	=1	=1	=1	=1	=1	=1	=1	=1	=1	=1	=1	=1	=1	=1	=1	=1	=1
*	*	*	*	*	*	*	*	*	*below	*	*	*	*	*	*	*	*	*	*	*	*	*	*	*	*	*	*	*	*	*	*	*	*	*	*	*	*	*	*	*	*	*	*	*
!	!	!LO:TX:a:t=1.	!	!LO:TX:a:t=Adagio.	!	!LO:TX:a:t=Adagio.	!	!	!	!LO:TX:a:t=Adagio.	!	!LO:TX:a:t=Adagio	!	!LO:TX:a:t=Adagio	!	!LO:TX:a:t=Adagio.	!	!LO:TX:a:t=Adagio.	!	!LO:TX:a:t=36.	!LO:TX:a:t=14.	!	!LO:TX:a:t=13.	!	!LO:TX:a:t=13.	!	!LO:TX:a:t=13.	!	!LO:TX:a:t=13.	!	!LO:TX:a:t=1.	!	!LO:TX:a:t=1.	!	!LO:TX:a:t=Adagio.	!	!LO:TX:a:t=Adagio.	!	!LO:TX:a:t=13.	!	!LO:TX:a:t=5.	!	!LO:TX:a:t=Adagio.	!
!	!	!LO:TX:a:t=Adagio.	!	!LO:TX:a:t=1.	!	!LO:TX:a:t=1.	!	!LO:TX:a:t=Adagio	!	!LO:TX:a:t=2.	!	!LO:TX:a:t=8.	!	!LO:TX:a:t=10.	!	!LO:TX:a:t=8.	!	!LO:TX:a:t=10.	!	!LO:TX:a:t=Adagio.	!LO:TX:a:t=Adagio.	!	!LO:TX:a:t=Adagio.	!	!LO:TX:a:t=Adagio	!	!LO:TX:a:t=Adagio	!	!LO:TX:a:t=Adagio	!	!LO:TX:a:t=Adagio.	!	!LO:TX:a:t=Adagio.	!	!LO:TX:a:t=13.	!	!LO:TX:a:t=5.	!	!LO:TX:a:t=Adagio	!	!LO:TX:a:t=Adagio	!	!LO:TX:a:t=13.	!
!	!	!	!	!	!	!	!	!	!	!LO:N:vis=0	!	!LO:N:vis=00	!	!LO:N:vis=00	!	!LO:N:vis=00	!	!LO:N:vis=00	!	!	!LO:N:vis=00	!	!LO:N:vis=00	!	!LO:N:vis=00	!	!	!	!	!	!	!	!	!	!	!	!LO:N:vis=00	!	!	!	!LO:N:sic=00	!	!	!
2.r	.	2.r	.	2.r	.	2.r	.	8d/	p	1.r	.	0.r	.	0.r	.	0.r	.	0.r	.	2.r	0.r	.	0.r	.	0.r	.	2.r	.	2.r	.	2.r	.	2.r	.	2.r	.	0.r	.	2.r	.	0.r	.	2.r	.
.	.	.	.	.	.	.	.	4d/	.	.	.	.	.	.	.	.	.	.	.	.	.	.	.	.	.	.	.	.	.	.	.	.	.	.	.	.	.	.	.	.	.	.	.	.
.	.	.	.	.	.	.	.	4d/	.	.	.	.	.	.	.	.	.	.	.	.	.	.	.	.	.	.	.	.	.	.	.	.	.	.	.	.	.	.	.	.	.	.	.	.
.	.	.	.	.	.	.	.	8d/	.	.	.	.	.	.	.	.	.	.	.	.	.	.	.	.	.	.	.	.	.	.	.	.	.	.	.	.	.	.	.	.	.	.	.	.
=2	=2	=2	=2	=2	=2	=2	=2	=2	=2	=2	=2	=2	=2	=2	=2	=2	=2	=2	=2	=2	=2	=2	=2	=2	=2	=2	=2	=2	=2	=2	=2	=2	=2	=2	=2	=2	=2	=2	=2	=2	=2	=2	=2	=2
*	*	*	*	*	*	*	*below	*	*	*	*	*	*	*	*	*	*	*	*	*	*	*	*	*	*	*	*	*	*	*	*	*	*	*	*	*	*	*	*	*	*	*	*	*
4D\	.	4d/	.	(4D\	p	(4d\	p	8d/	.	.	.	.	.	.	.	.	.	.	.	2.r	.	.	.	.	.	.	2.r	.	2.r	.	(4D\	.	(4D\	.	2.r	.	.	.	2.r	.	.	.	2.r	.
.	.	.	.	.	.	.	.	4d/	.	.	.	.	.	.	.	.	.	.	.	.	.	.	.	.	.	.	.	.	.	.	.	.	.	.	.	.	.	.	.	.	.	.	.	.
4F\	.	4f/	.	4F\	.	4f\	.	.	.	.	.	.	.	.	.	.	.	.	.	.	.	.	.	.	.	.	.	.	.	.	4F\	.	4F\	.	.	.	.	.	.	.	.	.	.	.
.	.	.	.	.	.	.	.	4d/	.	.	.	.	.	.	.	.	.	.	.	.	.	.	.	.	.	.	.	.	.	.	.	.	.	.	.	.	.	.	.	.	.	.	.	.
4GG#X\	.	4G#X</	.	4GG#X/	.	4G#X/	.	.	.	.	.	.	.	.	.	.	.	.	.	.	.	.	.	.	.	.	.	.	.	.	4GG#X/	.	4GG#X/	.	.	.	.	.	.	.	.	.	.	.
.	.	.	.	.	.	.	.	8d/	.	.	.	.	.	.	.	.	.	.	.	.	.	.	.	.	.	.	.	.	.	.	.	.	.	.	.	.	.	.	.	.	.	.	.	.
=3	=3	=3	=3	=3	=3	=3	=3	=3	=3	=3	=3	=3	=3	=3	=3	=3	=3	=3	=3	=3	=3	=3	=3	=3	=3	=3	=3	=3	=3	=3	=3	=3	=3	=3	=3	=3	=3	=3	=3	=3	=3	=3	=3	=3
*	*	*	*	*	*	*	*	*	*	*	*below	*	*	*	*	*	*	*	*	*	*	*	*	*	*	*	*	*	*	*	*	*	*	*	*	*	*	*	*	*	*	*	*	*
4AA\	.	4A</	.	4AA/)	.	4A/)	.	8d/	.	8e/	p	.	.	.	.	.	.	.	.	2.r	.	.	.	.	.	.	2.r	.	2.r	.	4AA/)	.	4AA/)	.	2.r	.	.	.	2.r	.	.	.	2.r	.
.	.	.	.	.	.	.	.	4d/	.	4e/	.	.	.	.	.	.	.	.	.	.	.	.	.	.	.	.	.	.	.	.	.	.	.	.	.	.	.	.	.	.	.	.	.	.
4rGG	.	4rA<	.	4r	.	4r	.	.	.	.	.	.	.	.	.	.	.	.	.	.	.	.	.	.	.	.	.	.	.	.	4r	.	4r	.	.	.	.	.	.	.	.	.	.	.
.	.	.	.	.	.	.	.	4c#X/	.	4e/	.	.	.	.	.	.	.	.	.	.	.	.	.	.	.	.	.	.	.	.	.	.	.	.	.	.	.	.	.	.	.	.	.	.
4rGG	.	4rA<	.	4r	.	4r	.	.	.	.	.	.	.	.	.	.	.	.	.	.	.	.	.	.	.	.	.	.	.	.	4r	.	4r	.	.	.	.	.	.	.	.	.	.	.
.	.	.	.	.	.	.	.	8c#/	.	8e/	.	.	.	.	.	.	.	.	.	.	.	.	.	.	.	.	.	.	.	.	.	.	.	.	.	.	.	.	.	.	.	.	.	.
!	!	!	!	!	!	!	!	!LO:SIC:o=:v:custos	!	!	!	!	!	!	!	!	!	!	!	!	!	!	!	!	!	!	!	!	!	!	!	!	!	!	!	!	!	!	!	!	!	!	!	!
=4	=4	=4	=4	=4	=4	=4	=4	=4	=4	=4	=4	=4	=4	=4	=4	=4	=4	=4	=4	=4	=4	=4	=4	=4	=4	=4	=4	=4	=4	=4	=4	=4	=4	=4	=4	=4	=4	=4	=4	=4	=4	=4	=4	=4
!	!	!	!	!	!	!	!	!LO:PB:g=original	!	!	!	!	!	!	!	!	!	!	!	!	!	!	!	!	!	!	!	!	!	!	!	!	!	!	!	!	!	!	!	!	!	!	!	!
4E\	.	4e/	.	(4E\	.	(4e\	.	8c#X/	.	8e/	.	.	.	.	.	.	.	.	.	2.r	.	.	.	.	.	.	2.r	.	2.r	.	(4E\	.	(4E\	.	2.r	.	.	.	2.r	.	.	.	2.r	.
.	.	.	.	.	.	.	.	4c#/	.	4e/	.	.	.	.	.	.	.	.	.	.	.	.	.	.	.	.	.	.	.	.	.	.	.	.	.	.	.	.	.	.	.	.	.	.
4G\	.	4g/	.	4G\	.	4g\	.	.	.	.	.	.	.	.	.	.	.	.	.	.	.	.	.	.	.	.	.	.	.	.	4G\	.	4G\	.	.	.	.	.	.	.	.	.	.	.
.	.	.	.	.	.	.	.	4g/	.	4e/	.	.	.	.	.	.	.	.	.	.	.	.	.	.	.	.	.	.	.	.	.	.	.	.	.	.	.	.	.	.	.	.	.	.
4AA\	.	4A</	.	4AA/	.	4A/)	.	.	.	.	.	.	.	.	.	.	.	.	.	.	.	.	.	.	.	.	.	.	.	.	4AA/	.	4AA/)	.	.	.	.	.	.	.	.	.	.	.
.	.	.	.	.	.	.	.	8g/	.	8e/	.	.	.	.	.	.	.	.	.	.	.	.	.	.	.	.	.	.	.	.	.	.	.	.	.	.	.	.	.	.	.	.	.	.
!	!	!	!	!LO:SIC:o=:v:custos	!	!	!	!	!	!	!	!	!	!	!	!	!	!	!	!	!	!	!	!	!	!	!	!	!	!	!	!	!	!	!	!	!	!	!	!	!	!	!	!
=5	=5	=5	=5	=5	=5	=5	=5	=5	=5	=5	=5	=5	=5	=5	=5	=5	=5	=5	=5	=5	=5	=5	=5	=5	=5	=5	=5	=5	=5	=5	=5	=5	=5	=5	=5	=5	=5	=5	=5	=5	=5	=5	=5	=5
!LO:PB:g=original	!	!	!	!LO:PB:g=original	!	!	!	!	!	!	!	!	!	!	!	!	!	!	!	!	!	!	!	!	!	!	!	!	!	!	!	!	!	!LO:PB:g=original	!	!	!	!	!	!	!	!	!	!
*	*	*^	*	*	*	*	*	*	*	*	*	*	*	*	*	*	*	*	*	*	*	*	*	*	*	*	*	*	*	*	*	*	*	*	*	*	*	*	*	*	*	*	*	*
!	!	!	!	!	!	!	!	!	!	!	!	!	!LO:N:vis=00	!	!LO:N:vis=00	!	!LO:N:vis=00	!	!LO:N:vis=00	!	!	!LO:N:vis=00	!	!LO:N:vis=00	!	!LO:N:vis=00	!	!	!	!	!	!	!	!	!	!	!	!	!	!	!	!	!	!	!
4BB-X\	.	4B-X</	4B-<\	.	4BB-X/)	.	4B-X/	.	8f/	.	8e/	.	0.r	.	0.r	.	0.r	.	0.r	.	2.r	0.r	.	0.r	.	0.r	.	2.r	.	2.r	.	4BB-X/)	.	4BB-X/	.	2.r	.	2.r	.	2.r	.	2.r	.	2.r	.
.	.	.	.	.	.	.	.	.	4f/	.	4e/	.	.	.	.	.	.	.	.	.	.	.	.	.	.	.	.	.	.	.	.	.	.	.	.	.	.	.	.	.	.	.	.	.	.
4rAA	.	4r<B	2r<yy	.	4r	.	4r	.	.	.	.	.	.	.	.	.	.	.	.	.	.	.	.	.	.	.	.	.	.	.	.	4r	.	4r	.	.	.	.	.	.	.	.	.	.	.
.	.	.	.	.	.	.	.	.	4f/	.	4d/	.	.	.	.	.	.	.	.	.	.	.	.	.	.	.	.	.	.	.	.	.	.	.	.	.	.	.	.	.	.	.	.	.	.
4rAA	.	4r<B	.	.	4r	.	4r	.	.	.	.	.	.	.	.	.	.	.	.	.	.	.	.	.	.	.	.	.	.	.	.	4r	.	4r	.	.	.	.	.	.	.	.	.	.	.
.	.	.	.	.	.	.	.	.	8f/	.	8d/	.	.	.	.	.	.	.	.	.	.	.	.	.	.	.	.	.	.	.	.	.	.	.	.	.	.	.	.	.	.	.	.	.	.
*	*	*v	*v	*	*	*	*	*	*	*	*	*	*	*	*	*	*	*	*	*	*	*	*	*	*	*	*	*	*	*	*	*	*	*	*	*	*	*	*	*	*	*	*	*	*
=6	=6	=6	=6	=6	=6	=6	=6	=6	=6	=6	=6	=6	=6	=6	=6	=6	=6	=6	=6	=6	=6	=6	=6	=6	=6	=6	=6	=6	=6	=6	=6	=6	=6	=6	=6	=6	=6	=6	=6	=6	=6	=6	=6	=6
!	!	!	!	!	!	!LO:PB:g=original	!	!	!	!LO:PB:g=original	!	!	!	!	!	!	!	!	!	!	!	!	!	!	!	!	!	!	!	!	!LO:PB:g=original	!	!	!	!	!	!	!	!	!	!	!	!	!
4F\	.	8r	.	(4F\	.	(4f\	.	8f/	.	8d/	.	.	.	.	.	.	.	.	.	2.r	.	.	.	.	.	.	2.r	.	2.r	.	(4F\	.	(4F\	.	2.r	.	8r	.	2.r	.	8r	.	2.r	.
.	.	4aa\	.	.	.	.	.	4f/	.	4d/	.	.	.	.	.	.	.	.	.	.	.	.	.	.	.	.	.	.	.	.	.	.	.	.	.	.	4aa\	.	.	.	4aa\	.	.	.
4A\	.	.	.	4A\	.	4a\	.	.	.	.	.	.	.	.	.	.	.	.	.	.	.	.	.	.	.	.	.	.	.	.	4A\	.	4A\	.	.	.	.	.	.	.	.	.	.	.
.	.	4dd\	.	.	.	.	.	4f#X/	.	4a/	.	.	.	.	.	.	.	.	.	.	.	.	.	.	.	.	.	.	.	.	.	.	.	.	.	.	4dd\	.	.	.	4dd\	.	.	.
4C/	.	.	.	4C/	.	4c\)	.	.	.	.	.	.	.	.	.	.	.	.	.	.	.	.	.	.	.	.	.	.	.	.	4C/)	.	4C/	.	.	.	.	.	.	.	.	.	.	.
.	.	8ff#X\	.	.	.	.	.	8d/	.	8a/	.	.	.	.	.	.	.	.	.	.	.	.	.	.	.	.	.	.	.	.	.	.	.	.	.	.	8ff#X\	.	.	.	8ff#X\	.	.	.
=7	=7	=7	=7	=7	=7	=7	=7	=7	=7	=7	=7	=7	=7	=7	=7	=7	=7	=7	=7	=7	=7	=7	=7	=7	=7	=7	=7	=7	=7	=7	=7	=7	=7	=7	=7	=7	=7	=7	=7	=7	=7	=7	=7	=7
*	*	*	*	*	*	*	*	*	*	*	*	*	*	*	*	*	*	*	*	*	*	*	*	*	*	*	*	*	*	*	*	*	*	*	*	*	*2\right	*	*	*	*	*	*	*
4BB-/	.	2gg\	.	4BB-/)	.	2B-/	.	[2.d/	.	8g/	.	.	.	.	.	.	.	.	.	2.r	.	.	.	.	.	.	2.r	.	2.r	.	2BB-/	.	2BB-/	.	2.r	.	2gg\	.	2.r	.	2gg\	.	2.r	.
.	.	.	.	.	.	.	.	.	.	4g/	.	.	.	.	.	.	.	.	.	.	.	.	.	.	.	.	.	.	.	.	.	.	.	.	.	.	.	.	.	.	.	.	.	.
4r	.	.	.	4r	.	.	.	.	.	.	.	.	.	.	.	.	.	.	.	.	.	.	.	.	.	.	.	.	.	.	.	.	.	.	.	.	.	.	.	.	.	.	.	.
.	.	.	.	.	.	.	.	.	.	4g/	.	.	.	.	.	.	.	.	.	.	.	.	.	.	.	.	.	.	.	.	.	.	.	.	.	.	.	.	.	.	.	.	.	.
4AA/	.	4ffn\	.	4AA/	.	4A/	.	.	.	.	.	.	.	.	.	.	.	.	.	.	.	.	.	.	.	.	.	.	.	.	4AA/	.	4AA/	.	.	.	4ffn\	.	.	.	4ffn\	.	.	.
.	.	.	.	.	.	.	.	.	.	8fn/	.	.	.	.	.	.	.	.	.	.	.	.	.	.	.	.	.	.	.	.	.	.	.	.	.	.	.	.	.	.	.	.	.	.
=8	=8	=8	=8	=8	=8	=8	=8	=8	=8	=8	=8	=8	=8	=8	=8	=8	=8	=8	=8	=8	=8	=8	=8	=8	=8	=8	=8	=8	=8	=8	=8	=8	=8	=8	=8	=8	=8	=8	=8	=8	=8	=8	=8	=8
4GG/	.	2ee\	.	4GG/	.	2G/ 2B-/	.	2d/]	.	8e/	.	.	.	.	.	.	.	.	.	2.r	.	.	.	.	.	.	2.r	.	2.r	.	2GG/	.	2GG/	.	2.r	.	2ee\	.	2.r	.	2ee\	.	2.r	.
.	.	.	.	.	.	.	.	.	.	4e/	.	.	.	.	.	.	.	.	.	.	.	.	.	.	.	.	.	.	.	.	.	.	.	.	.	.	.	.	.	.	.	.	.	.
4r	.	.	.	4r	.	.	.	.	.	.	.	.	.	.	.	.	.	.	.	.	.	.	.	.	.	.	.	.	.	.	.	.	.	.	.	.	.	.	.	.	.	.	.	.
.	.	.	.	.	.	.	.	.	.	4e/	.	.	.	.	.	.	.	.	.	.	.	.	.	.	.	.	.	.	.	.	.	.	.	.	.	.	.	.	.	.	.	.	.	.
4AA/	.	4aa\	.	4AA/	.	4A/	.	4c#X/	.	.	.	.	.	.	.	.	.	.	.	.	.	.	.	.	.	.	.	.	.	.	4AA/	.	4AA/	.	.	.	4aa\	.	.	.	4aa\	.	.	.
.	.	.	.	.	.	.	.	.	.	8e/	.	.	.	.	.	.	.	.	.	.	.	.	.	.	.	.	.	.	.	.	.	.	.	.	.	.	.	.	.	.	.	.	.	.
!	!	!	!	!	!	!	!	!LO:SIC:o=:v:custos	!	!	!	!	!	!	!	!	!	!	!	!	!	!	!	!	!	!	!	!	!	!	!	!	!	!	!	!	!	!	!	!	!	!	!	!
=9	=9	=9	=9	=9	=9	=9	=9	=9	=9	=9	=9	=9	=9	=9	=9	=9	=9	=9	=9	=9	=9	=9	=9	=9	=9	=9	=9	=9	=9	=9	=9	=9	=9	=9	=9	=9	=9	=9	=9	=9	=9	=9	=9	=9
!	!	!	!	!	!	!	!	!LO:PB:g=original	!	!	!	!	!	!	!	!	!	!	!	!	!	!	!	!	!	!	!	!	!	!	!	!	!	!	!	!	!	!	!	!	!	!	!	!
*	*	*	*	*	*	*	*	*	*	*	*	*	*	*	*	*2\right	*	*	*	*	*	*	*	*	*	*	*	*	*	*	*	*	*2\right	*	*	*	*	*	*	*	*	*	*	*
!	!	!	!	!	!	!	!	!	!	!	!	!	!	!LO:N:vis=0	!	!	!	!LO:N:vis=0	!	!	!LO:N:vis=00	!	!LO:N:vis=00	!	!LO:N:vis=00	!	!	!	!	!	!	!	!	!	!	!	!	!	!	!	!	!	!	!
8D/	.	2dd\	.	8D\	.	8r	.	8r	.	2d/	.	4r	.	1.r	.	2.d\	A-	1.r	.	2.r	0.r	.	0.r	.	0.r	.	2.r	.	2.r	.	2D\	.	2D\)	.	2.r	.	2dd\	.	2.r	.	2dd\	.	2.r	.
8r	.	.	.	8r	.	8F/	.	8d/	.	.	.	.	.	.	.	.	.	.	.	.	.	.	.	.	.	.	.	.	.	.	.	.	.	.	.	.	.	.	.	.	.	.	.	.
*	*	*	*	*	*	*	*	*	*	*	*	*2\right	*	*	*	*	*	*	*	*	*	*	*	*	*	*	*	*	*	*	*	*	*	*	*	*	*	*	*	*	*	*	*	*
8D/	.	.	.	8D\	.	8r	.	8r	.	.	.	[2D\	A-	.	.	.	.	.	.	.	.	.	.	.	.	.	.	.	.	.	.	.	.	.	.	.	.	.	.	.	.	.	.	.
8r	.	.	.	8r	.	8F/	.	8d/	.	.	.	.	.	.	.	.	.	.	.	.	.	.	.	.	.	.	.	.	.	.	.	.	.	.	.	.	.	.	.	.	.	.	.	.
8D/	.	4r	.	8D\	.	8r	.	8r	.	4r	.	.	.	.	.	.	.	.	.	.	.	.	.	.	.	.	.	.	.	.	4r	.	4r	.	.	.	4r	.	.	.	4r	.	.	.
8r	.	.	.	8r	.	8F/	.	8d/	.	.	.	.	.	.	.	.	.	.	.	.	.	.	.	.	.	.	.	.	.	.	.	.	.	.	.	.	.	.	.	.	.	.	.	.
=10	=10	=10	=10	=10	=10	=10	=10	=10	=10	=10	=10	=10	=10	=10	=10	=10	=10	=10	=10	=10	=10	=10	=10	=10	=10	=10	=10	=10	=10	=10	=10	=10	=10	=10	=10	=10	=10	=10	=10	=10	=10	=10	=10	=10
!LO:PB:g=original	!	!	!	!LO:PB:g=original	!	!	!	!	!	!	!	!	!	!	!	!	!	!	!	!	!	!	!	!	!	!	!	!	!	!	!	!	!	!	!	!	!LO:PB:g=original	!	!	!	!LO:PB:g=original	!	!	!
!	!	!	!	!	!	!	!	!	!	!LO:TX:a:t=1.	!	!	!	!	!	!	!	!	!	!	!	!	!	!	!	!	!	!	!	!	!LO:TX:a:t=4.	!	!LO:TX:a:t=4.	!	!	!	!LO:TX:a:t=4.	!	!	!	!LO:TX:a:t=4.	!	!	!
!	!	!	!	!	!	!	!	!	!	!	!	!	!	!	!	!	!	!	!	!	!	!	!	!	!	!	!	!	!	!	!LO:N:vis=00	!	!LO:N:vis=00	!	!	!	!LO:N:vis=00	!	!	!	!LO:N:vis=00	!	!	!
8D/	.	2.r	.	8D/	.	8r	.	8r	.	2.r	.	4D/]	.	.	.	2.e\	-gnus	.	.	2.r	.	.	.	.	.	.	2.r	.	2.r	.	0.r	.	0.r	.	2.r	.	0.r	.	2.r	.	0.r	.	2.r	.
8r	.	.	.	8r	.	8G/	.	8e/	.	.	.	.	.	.	.	.	.	.	.	.	.	.	.	.	.	.	.	.	.	.	.	.	.	.	.	.	.	.	.	.	.	.	.	.
8C/	.	.	.	8C/	.	8r	.	8r	.	.	.	4C/	.	.	.	.	.	.	.	.	.	.	.	.	.	.	.	.	.	.	.	.	.	.	.	.	.	.	.	.	.	.	.	.
8r	.	.	.	8r	.	8G/	.	8e/	.	.	.	.	.	.	.	.	.	.	.	.	.	.	.	.	.	.	.	.	.	.	.	.	.	.	.	.	.	.	.	.	.	.	.	.
8BB-/	.	.	.	8BB-/	.	8r	.	8r	.	.	.	4BB-/	-gnus	.	.	.	.	.	.	.	.	.	.	.	.	.	.	.	.	.	.	.	.	.	.	.	.	.	.	.	.	.	.	.
8r	.	.	.	8r	.	8G/	.	8e/	.	.	.	.	.	.	.	.	.	.	.	.	.	.	.	.	.	.	.	.	.	.	.	.	.	.	.	.	.	.	.	.	.	.	.	.
!	!	!	!	!	!	!	!	!	!	!LO:SIC:o=:v:custos	!	!	!	!	!	!	!	!	!	!	!	!	!	!	!	!	!	!	!	!	!	!	!	!	!	!	!	!	!	!	!	!	!	!
=11	=11	=11	=11	=11	=11	=11	=11	=11	=11	=11	=11	=11	=11	=11	=11	=11	=11	=11	=11	=11	=11	=11	=11	=11	=11	=11	=11	=11	=11	=11	=11	=11	=11	=11	=11	=11	=11	=11	=11	=11	=11	=11	=11	=11
!	!	!	!	!	!	!	!	!	!	!LO:PB:g=original	!	!	!	!	!	!	!	!	!	!	!	!	!	!	!	!	!	!	!	!	!	!	!	!	!	!	!	!	!	!	!	!	!	!
8AA/	.	2.r	.	8AA/	.	8r	.	8r	.	8r	.	2.AA/	A-	[>2.F/	A-	(2f\	A-	4r	.	2.r	.	.	.	.	.	.	2.r	.	2.r	.	.	.	.	.	2.r	.	.	.	2.r	.	.	.	2.r	.
8r	.	.	.	8r	.	8F/	.	8f/	.	8cc\	.	.	.	.	.	.	.	.	.	.	.	.	.	.	.	.	.	.	.	.	.	.	.	.	.	.	.	.	.	.	.	.	.	.
*	*	*	*	*	*	*	*	*	*	*	*	*	*	*	*	*	*	*2\right	*	*	*	*	*	*	*	*	*	*	*	*	*	*	*	*	*	*	*	*	*	*	*	*	*	*
8AA/	.	.	.	8AA/	.	8r	.	8r	.	8r	.	.	.	.	.	.	.	[2cc\	A-	.	.	.	.	.	.	.	.	.	.	.	.	.	.	.	.	.	.	.	.	.	.	.	.	.
8r	.	.	.	8r	.	8F/	.	8f/	.	8cc\	.	.	.	.	.	.	.	.	.	.	.	.	.	.	.	.	.	.	.	.	.	.	.	.	.	.	.	.	.	.	.	.	.	.
8AA/	.	.	.	8AA/	.	8r	.	8r	.	8r	.	.	.	.	.	8e\L	.	.	.	.	.	.	.	.	.	.	.	.	.	.	.	.	.	.	.	.	.	.	.	.	.	.	.	.
8r	.	.	.	8r	.	8F/	.	8f/	.	8cc\	.	.	.	.	.	8f\J)	.	.	.	.	.	.	.	.	.	.	.	.	.	.	.	.	.	.	.	.	.	.	.	.	.	.	.	.
=12	=12	=12	=12	=12	=12	=12	=12	=12	=12	=12	=12	=12	=12	=12	=12	=12	=12	=12	=12	=12	=12	=12	=12	=12	=12	=12	=12	=12	=12	=12	=12	=12	=12	=12	=12	=12	=12	=12	=12	=12	=12	=12	=12	=12
!	!	!	!	!	!	!LO:PB:g=original	!	!	!	!	!	!	!	!	!	!	!	!	!	!	!	!	!	!	!	!	!	!	!	!	!	!	!	!	!	!	!	!	!	!	!	!	!	!
8BB-/	.	2.r	.	8BB-/	.	8r	.	8r	.	8r	.	2.BB-/	-gnus	2F/]	.	2.d\	-gnus	4cc\]	.	2.r	.	.	.	.	.	.	2.r	.	2.r	.	.	.	.	.	2.r	.	.	.	2.r	.	.	.	2.r	.
8r	.	.	.	8r	.	8F/	.	8d/	.	8cc\	.	.	.	.	.	.	.	.	.	.	.	.	.	.	.	.	.	.	.	.	.	.	.	.	.	.	.	.	.	.	.	.	.	.
8BB-/	.	.	.	8BB-/	.	8r	.	8r	.	8r	.	.	.	.	.	.	.	2b-\	-gnus	.	.	.	.	.	.	.	.	.	.	.	.	.	.	.	.	.	.	.	.	.	.	.	.	.
8r	.	.	.	8r	.	8F/	.	8d/	.	8b-\	.	.	.	.	.	.	.	.	.	.	.	.	.	.	.	.	.	.	.	.	.	.	.	.	.	.	.	.	.	.	.	.	.	.
8BB-/	.	.	.	8BB-/	.	8r	.	8r	.	8r	.	.	.	4G/	-gnus	.	.	.	.	.	.	.	.	.	.	.	.	.	.	.	.	.	.	.	.	.	.	.	.	.	.	.	.	.
8r	.	.	.	8r	.	8F/	.	8d/	.	8b-\	.	.	.	.	.	.	.	.	.	.	.	.	.	.	.	.	.	.	.	.	.	.	.	.	.	.	.	.	.	.	.	.	.	.
!	!	!	!	!	!	!	!	!LO:SIC:o=:v:custos	!	!	!	!	!	!	!	!	!	!	!	!	!	!	!	!	!	!	!	!	!	!	!	!	!	!	!	!	!	!	!	!	!	!	!	!
=13	=13	=13	=13	=13	=13	=13	=13	=13	=13	=13	=13	=13	=13	=13	=13	=13	=13	=13	=13	=13	=13	=13	=13	=13	=13	=13	=13	=13	=13	=13	=13	=13	=13	=13	=13	=13	=13	=13	=13	=13	=13	=13	=13	=13
!	!	!	!	!	!	!	!	!	!	!	!	!LO:PB:g=original	!	!	!	!	!	!	!	!	!	!	!	!	!	!	!	!	!	!	!	!	!	!	!	!	!	!	!	!	!	!	!	!
*	*	*	*	*	*	*	*	*	*	*	*	*	*	*2\right	*	*	*	*	*	*	*	*	*	*	*	*	*	*	*	*	*	*	*	*	*	*	*	*	*	*	*	*	*	*
!	!	!	!	!	!	!	!	!	!	!	!	!	!	!	!	!	!	!	!	!	!LO:N:vis=0	!	!	!	!	!	!	!	!	!	!	!	!	!	!	!	!	!	!	!	!	!	!	!
8C/	.	2.r	.	8C/	.	8r	.	8r	.	8r	.	2.C/	De-	2A\	De-	2.c\	De-	2a\	De-	2.r	1.r	.	2.r	.	2.r	.	2.r	.	2.r	.	.	.	.	.	2.r	.	.	.	2.r	.	.	.	2.r	.
8r	.	.	.	8r	.	8A/	.	8c/	.	8a/	.	.	.	.	.	.	.	.	.	.	.	.	.	.	.	.	.	.	.	.	.	.	.	.	.	.	.	.	.	.	.	.	.	.
8C/	.	.	.	8C/	.	8r	.	8r	.	8r	.	.	.	.	.	.	.	.	.	.	.	.	.	.	.	.	.	.	.	.	.	.	.	.	.	.	.	.	.	.	.	.	.	.
8r	.	.	.	8r	.	8F/	.	8c/	.	8a/	.	.	.	.	.	.	.	.	.	.	.	.	.	.	.	.	.	.	.	.	.	.	.	.	.	.	.	.	.	.	.	.	.	.
8C/	.	.	.	8C/	.	8r	.	8r	.	8r	.	.	.	8.B-\L	.	.	.	8.e/L	.	.	.	.	.	.	.	.	.	.	.	.	.	.	.	.	.	.	.	.	.	.	.	.	.	.
8r	.	.	.	8r	.	8G/	.	8B-/	.	8e/	.	.	.	.	.	.	.	.	.	.	.	.	.	.	.	.	.	.	.	.	.	.	.	.	.	.	.	.	.	.	.	.	.	.
.	.	.	.	.	.	.	.	.	.	.	.	.	.	16A\Jk	.	.	.	16f/Jk	.	.	.	.	.	.	.	.	.	.	.	.	.	.	.	.	.	.	.	.	.	.	.	.	.	.
=14	=14	=14	=14	=14	=14	=14	=14	=14	=14	=14	=14	=14	=14	=14	=14	=14	=14	=14	=14	=14	=14	=14	=14	=14	=14	=14	=14	=14	=14	=14	=14	=14	=14	=14	=14	=14	=14	=14	=14	=14	=14	=14	=14	=14
!LO:PB:g=original	!	!	!	!LO:PB:g=original	!	!	!	!	!	!	!	!	!	!	!	!LO:PB:g=original	!	!	!	!	!	!	!	!	!	!	!	!	!	!	!	!	!	!	!	!	!	!	!	!	!	!	!	!
*	*	*	*below	*2\right	*	*	*	*	*	*	*	*	*	*	*	*	*	*	*	*	*	*	*	*	*	*	*	*	*	*	*	*	*	*	*	*	*	*	*	*	*	*	*	*
2F\	.	8r	.	2F\	.	2F/	.	2A/	.	2f/	.	2F\	-i	2A\	-i	2c\	-i	2f/	-i	2.r	.	.	8r	.	8r	.	8r	.	8r	.	8r	.	8r	.	8r	.	8r	.	8r	.	8r	.	8r	.
.	.	4f\ 4ff\	<	.	.	.	.	.	.	.	.	.	.	.	.	.	.	.	.	.	.	.	4f/	<	4f/	<	4f\	<	4f\	<	4F\	<	4F\	<	4f/	<	4ff\	<	4f/	<	4ff\	<	4ff\	<
.	.	4f\ 4ff\	.	.	.	.	.	.	.	.	.	.	.	.	.	.	.	.	.	.	.	.	4f/	.	4f/	.	4f\	.	4f\	.	4F\	.	4F\	.	4f/	.	4ff\	.	4f/	.	4ff\	.	4ff\	.
4r	.	.	.	4r	.	4r	.	4r	.	4r	.	4F\	qui	4F/	qui	4f\	qui	4f/	qui	.	.	.	.	.	.	.	.	.	.	.	.	.	.	.	.	.	.	.	.	.	.	.	.	.
.	.	8f\ 8ff\	[	.	.	.	.	.	.	.	.	.	.	.	.	.	.	.	.	.	.	.	8f/	[	8f/	[	8f\	[	8f\	[	8F\	[	8F\	[	8f/	[	8ff\	[	8f/	[	8ff\	[	8ff\	[
=15	=15	=15	=15	=15	=15	=15	=15	=15	=15	=15	=15	=15	=15	=15	=15	=15	=15	=15	=15	=15	=15	=15	=15	=15	=15	=15	=15	=15	=15	=15	=15	=15	=15	=15	=15	=15	=15	=15	=15	=15	=15	=15	=15	=15
!	!	!	!	!	!	!	!	!	!	!LO:PB:g=original	!	!	!	!LO:PB:g=original	!	!	!	!LO:PB:g=original	!	!	!	!	!	!	!	!	!	!	!	!	!	!	!LO:PB:g=original	!	!	!	!	!	!	!	!	!	!	!
8.BB-/L	.	4f/ 4b-/ 4dd/	f	8.BB-/L	ff	8.B-\L	ff	8.f/L 8.dd/	ff	8.dd\L 8.bb-\	ff	8.BB-/L	tol-	4B-\	tol-	4f\	tol-	4dd\	tol-	2.r	8.BB-/L	f	4d/	ff	4b-\	ff	4f\	ff	4f\	ff	4BB-/	ff	4BB-/	ff	4b-\	ff	4dd\	ff	4b-\	ff	4dd\	ff	4ff\	ff
16D/Jk	.	.	.	16D/Jk	.	16d\Jk	.	16f/Jk 16dd/	.	16dd\Jk 16bb-\	.	16D/Jk	.	.	.	.	.	.	.	.	16D/Jk	.	.	.	.	.	.	.	.	.	.	.	.	.	.	.	.	.	.	.	.	.	.	.
4F\	.	4f/ 4a/ 4cc/	.	4F\	.	4f\	.	4f/ 4cc/	.	4cc\ 4aa\	.	4F\	-lis	4A\	-lis	4f\	-lis	4cc\	-lis	.	4F\	.	4f/	.	4cc\	.	4f\	.	4f\	.	4F\	.	4F\	.	4a\	.	4cc\	.	4a/	.	4cc\	.	4ff\	.
4r	.	4r	.	4r	.	4r	.	4r	.	4r	.	4F\	qui	4c\	qui	4f\	qui	4a\	qui	.	4r	.	4r	.	4r	.	4r	.	4r	.	4r	.	4r	.	4r	.	4r	.	4r	.	4r	.	4r	.
!	!	!	!	!	!	!	!	!	!	!	!	!	!	!	!	!	!	!	!	!	!	!	!	!	!	!	!	!	!	!	!	!	!	!	!	!	!	!	!	!	!	!	!LO:SIC:o=:v:custos	!
=16	=16	=16	=16	=16	=16	=16	=16	=16	=16	=16	=16	=16	=16	=16	=16	=16	=16	=16	=16	=16	=16	=16	=16	=16	=16	=16	=16	=16	=16	=16	=16	=16	=16	=16	=16	=16	=16	=16	=16	=16	=16	=16	=16	=16
!	!	!	!	!	!	!	!	!	!	!	!	!	!	!	!	!	!	!	!	!	!	!	!	!	!	!	!	!	!	!	!LO:PB:g=original	!	!	!	!	!	!	!	!	!	!	!	!LO:PB;g=original	!
!	!	!	!	!	!	!	!	!	!	!	!	!	!	!	!	!	!	!	!	!	!LO:TX:a:t=3.	!	!LO:TX:a:t=3.	!	!LO:TX:a:t=3.	!	!LO:TX:a:t=3.	!	!LO:TX:a:t=3.	!	!LO:TX:a:t=3.	!	!LO:TX:a:t=3.	!	!LO:TX:a:t=3.	!	!LO:TX:a:t=3.	!	!LO:TX:a:t=3.	!	!LO:TX:a:t=3.	!	!LO:TX:a:t=3.	!
!	!	!	!	!	!	!	!	!	!	!	!	!	!	!	!	!	!	!	!	!	!LO:N:vis=0	!	!LO:N:vis=0	!	!LO:N:vis=0	!	!LO:N:vis=0	!	!LO:N:vis=0	!	!LO:N:vis=0	!	!LO:N:vis=0	!	!LO:N:vis=0	!	!LO:N:vis=0	!	!LO:N:vis=0	!	!LO:N:vis=0	!	!LO:N:vis=0	!
4r	.	2.r	.	4r	.	4r	.	4r	.	4r	.	4G\	tol-	4c\	tol-	4e\	tol-	8.cc\L	tol-	2.r	1.r	.	1.r	.	1.r	.	1.r	.	1.r	.	1.r	.	1.r	.	1.r	.	1.r	.	1.r	.	1.r	.	1.r	.
.	.	.	.	.	.	.	.	.	.	.	.	.	.	.	.	.	.	16b-\Jk	.	.	.	.	.	.	.	.	.	.	.	.	.	.	.	.	.	.	.	.	.	.	.	.	.	.
4r	.	.	.	4r	.	4r	.	4r	.	4r	.	4F\	-lis	4c\	-lis	4f\	-lis	4a\	-lis	.	.	.	.	.	.	.	.	.	.	.	.	.	.	.	.	.	.	.	.	.	.	.	.	.
8E\	p	.	.	8E\	p	8E/	p	8r	.	8r	.	4E\	pec-	4c\	pec-	4c\	pec-	4g\	qui	.	.	.	.	.	.	.	.	.	.	.	.	.	.	.	.	.	.	.	.	.	.	.	.	.
8r	.	.	.	8r	.	8r	.	8c/	p	8g/	p	.	.	.	.	.	.	.	.	.	.	.	.	.	.	.	.	.	.	.	.	.	.	.	.	.	.	.	.	.	.	.	.	.
!	!	!	!	!	!	!LO:SIC:o=:v:custos	!	!	!	!	!	!	!	!	!	!	!	!	!	!	!	!	!	!	!	!	!	!	!	!	!	!	!	!	!	!	!	!	!	!	!	!	!	!
=17	=17	=17	=17	=17	=17	=17	=17	=17	=17	=17	=17	=17	=17	=17	=17	=17	=17	=17	=17	=17	=17	=17	=17	=17	=17	=17	=17	=17	=17	=17	=17	=17	=17	=17	=17	=17	=17	=17	=17	=17	=17	=17	=17	=17
8F\	.	2.r	.	8F\	.	8F/	.	8r	.	8r	.	2F\	-ca-	(4c\	-ca-	(4c\	-ca-	4a\	tol-	2.r	.	.	.	.	.	.	.	.	.	.	.	.	.	.	.	.	.	.	.	.	.	.	.	.
8r	.	.	.	8r	.	8r	.	8c/	.	8a/	.	.	.	.	.	.	.	.	.	.	.	.	.	.	.	.	.	.	.	.	.	.	.	.	.	.	.	.	.	.	.	.	.	.
8F\	.	.	.	8F\	.	8F/	.	8r	.	8r	.	.	.	4G/)	.	4d\)	-ta	4bn\	-lis	.	.	.	.	.	.	.	.	.	.	.	.	.	.	.	.	.	.	.	.	.	.	.	.	.
8r	.	.	.	8r	.	8r	.	8d/	.	8bn/	.	.	.	.	.	.	.	.	.	.	.	.	.	.	.	.	.	.	.	.	.	.	.	.	.	.	.	.	.	.	.	.	.	.
8E\	.	.	.	8E\	.	8E/	.	8r	.	8r	.	4E\	-ta	4G/	-ta	4c\	mun-	4cc\	pec-	.	.	.	.	.	.	.	.	.	.	.	.	.	.	.	.	.	.	.	.	.	.	.	.	.
8r	.	.	.	8r	.	8r	.	8g/	.	8cc/	.	.	.	.	.	.	.	.	.	.	.	.	.	.	.	.	.	.	.	.	.	.	.	.	.	.	.	.	.	.	.	.	.	.
!	!	!	!	!LO:SIC:o=custos	!	!	!	!	!	!	!	!	!	!	!	!	!	!	!	!	!	!	!	!	!	!	!	!	!	!	!	!	!	!	!	!	!	!	!	!	!	!	!	!
=18	=18	=18	=18	=18	=18	=18	=18	=18	=18	=18	=18	=18	=18	=18	=18	=18	=18	=18	=18	=18	=18	=18	=18	=18	=18	=18	=18	=18	=18	=18	=18	=18	=18	=18	=18	=18	=18	=18	=18	=18	=18	=18	=18	=18
!	!	!	!	!LO:PB:g=original	!	!	!	!LO:PB:g=original	!	!	!	!	!	!	!	!	!	!	!	!	!	!	!	!	!	!	!	!	!	!	!	!	!	!	!	!	!	!	!	!	!	!	!	!
8D/	.	2.r	.	8D\	.	8D/	.	8r	.	8r	.	[2D/	mun-	[2F/	mun-	2f\	-di	4cc\	-ca-	2.r	2.r	.	2.r	.	2.r	.	2.r	.	2.r	.	2.r	.	2.r	.	2.r	.	2.r	.	2.r	.	2.r	.	2.r	.
8r	.	.	.	8r	.	8r	.	8f/	.	8cc\	.	.	.	.	.	.	.	.	.	.	.	.	.	.	.	.	.	.	.	.	.	.	.	.	.	.	.	.	.	.	.	.	.	.
8D/	.	.	.	8D\	.	8D/	.	8r	.	8r	.	.	.	.	.	.	.	4a\	-ta	.	.	.	.	.	.	.	.	.	.	.	.	.	.	.	.	.	.	.	.	.	.	.	.	.
8r	.	.	.	8r	.	8r	.	8f/	.	8a/	.	.	.	.	.	.	.	.	.	.	.	.	.	.	.	.	.	.	.	.	.	.	.	.	.	.	.	.	.	.	.	.	.	.
8D/	.	.	.	8D\	.	8D/	.	8r	.	8r	.	8.D/L]	.	8.F/L]	.	8.f\L	mun-	8.bn\L	mun-	.	.	.	.	.	.	.	.	.	.	.	.	.	.	.	.	.	.	.	.	.	.	.	.	.
8r	.	.	.	8r	.	8r	.	8f/	.	8bn\	.	.	.	.	.	.	.	.	.	.	.	.	.	.	.	.	.	.	.	.	.	.	.	.	.	.	.	.	.	.	.	.	.	.
.	.	.	.	.	.	.	.	.	.	.	.	16C/Jk	.	16G/Jk	.	16e\Jk	.	16cc\Jk	.	.	.	.	.	.	.	.	.	.	.	.	.	.	.	.	.	.	.	.	.	.	.	.	.	.
!	!	!	!	!	!	!	!	!	!	!LO:SIC:o=:v:custos	!	!	!	!	!	!	!	!	!	!	!	!	!	!	!	!	!	!	!	!	!	!	!	!	!	!	!	!	!	!	!	!	!	!
=19	=19	=19	=19	=19	=19	=19	=19	=19	=19	=19	=19	=19	=19	=19	=19	=19	=19	=19	=19	=19	=19	=19	=19	=19	=19	=19	=19	=19	=19	=19	=19	=19	=19	=19	=19	=19	=19	=19	=19	=19	=19	=19	=19	=19
!LO:LB:g=original	!	!	!	!	!	!	!	!	!	!	!	!LO:PB:g=original	!	!	!	!	!	!	!	!	!	!	!	!	!	!	!LO:PB:g=original	!	!LO:PB:g=original	!	!	!	!	!	!LO:PB:g=original	!	!	!	!LO:PB:g=original	!	!	!	!	!
8C/	.	4r	.	8C/	.	8C/	.	8r	.	8r	.	2C/	-di	2G/	-di	2e\	-di	2cc\	-di	2.r	4r	.	4r	.	4r	.	4r	.	4r	.	4r	.	4r	.	4r	.	4r	.	4r	.	4r	.	4r	.
8r	.	.	.	8r	.	8r	.	8e/	.	8cc\	.	.	.	.	.	.	.	.	.	.	.	.	.	.	.	.	.	.	.	.	.	.	.	.	.	.	.	.	.	.	.	.	.	.
8C/	.	4r	.	8C/	.	8c/	.	8r	.	8r	.	.	.	.	.	.	.	.	.	.	4r	.	4r	.	4r	.	4r	.	4r	.	4r	.	4r	.	4r	.	4r	.	4r	.	4r	.	4r	.
8r	.	.	.	8r	.	8r	.	8e/	.	8cc\	.	.	.	.	.	.	.	.	.	.	.	.	.	.	.	.	.	.	.	.	.	.	.	.	.	.	.	.	.	.	.	.	.	.
8BB-/	.	8.f/L 8.b-/ 8.dd/	f	8BB-/	f	8B-X/	f	8r	.	8r	.	8.BB-/	mi-	8.B-\	mi-	8.f\	mi-	8.dd\	mi-	.	4BB-/	f	8.d/L	f	8.b-\L	f	8.f\L	f	8.f\L	f	8.BB-/L	f	8.B-\L	f	8.dd\L	f	8.bb-\L	f	8.dd\L	f	8.bb-\L	f	8.ff\L	f
8r	.	.	.	8r	.	8r	.	8f/	f	8dd\	f	.	.	.	.	.	.	.	.	.	.	.	.	.	.	.	.	.	.	.	.	.	.	.	.	.	.	.	.	.	.	.	.	.
.	.	16f/Jk 16b-/ 16dd/	.	.	.	.	.	.	.	.	.	16BB-/	-se-	16B-\	-se-	16f\	-se-	16dd\	-se-	.	.	.	16d/Jk	.	16b-\Jk	.	16f\Jk	.	16f\Jk	.	16BB-/Jk	.	16B-\Jk	.	16dd\Jk	.	16bb-\Jk	.	16dd\Jk	.	16bb-\Jk	.	16ff\Jk	.
=20	=20	=20	=20	=20	=20	=20	=20	=20	=20	=20	=20	=20	=20	=20	=20	=20	=20	=20	=20	=20	=20	=20	=20	=20	=20	=20	=20	=20	=20	=20	=20	=20	=20	=20	=20	=20	=20	=20	=20	=20	=20	=20	=20	=20
!	!	!	!	!	!	!	!	!	!	!	!	!	!	!	!	!LO:PB:g=original	!	!LO:PB:g=original	!	!	!	!	!LO:PB:g=original	!	!LO:PB:g=original	!	!	!	!	!	!	!	!	!	!	!	!	!	!	!	!	!	!	!
8BB-/	.	4.f/ 4.b-/ 4.dd/	p	8BB-/	p	8B-/	p	8r	.	8r	.	4BB-/	-re-	4B-\	-re-	4f\	-re-	4dd\	-re-	2.r	4BB-/	p	4d/	p	4b-\	.	4f\	p	4f\	p	4BB-/	.	4.B-\	p	4dd\	p	4.bb-\	p	4dd\	p	4.bb-\	p	4ff\	p
8r	.	.	.	8r	.	8r	.	8f/	p	8dd\	p	.	.	.	.	.	.	.	.	.	.	.	.	.	.	.	.	.	.	.	.	.	.	.	.	.	.	.	.	.	.	.	.	.
8BB-/	.	.	.	8BB-/	.	8B-/	.	8r	.	8r	.	8BB-/	-re	8B-\	-re	8f\	-re	8dd\	-re	.	4r	.	4r	.	4r	.	4r	.	4r	.	4r	.	.	.	4r	.	.	.	4r	.	.	.	4r	.
8r	.	8a\L	.	8r	.	8r	.	8f/	.	8dd\	.	8r	.	8r	.	8r	.	8r	.	.	.	.	.	.	.	.	.	.	.	.	.	.	8A\L	.	.	.	8a\L	.	.	.	8a\L	.	.	.
!	!	!	!	!	!	!	!	!	!	!	!	!	!	!LO:PB:g=original	!	!	!	!	!	!	!	!	!	!	!	!	!	!	!	!	!	!	!	!	!	!	!	!	!	!	!	!	!	!
8D/	.	8b-\	.	8D\	.	8D/	.	8r	.	8r	.	8.D\	mi-	8.d\	mi-	8.f\	mi-	8.b-\	mi-	.	4r	.	4r	.	4r	.	4r	.	4r	.	4r	.	8B-\	.	4r	.	8b-\	.	4r	.	8b-\	.	4r	.
8r	.	8dd\J	.	8r	.	8r	.	8f/	.	8b-X\	.	.	.	.	.	.	.	.	.	.	.	.	.	.	.	.	.	.	.	.	.	.	8d\J	.	.	.	8dd\J	.	.	.	8dd\J	.	.	.
.	.	.	.	.	.	.	.	.	.	.	.	16D\	-se-	16d\	-se-	16f\	-se-	16b-\	-se-	.	.	.	.	.	.	.	.	.	.	.	.	.	.	.	.	.	.	.	.	.	.	.	.	.
!	!	!	!	!LO:SIC::v:custos	!	!LO:SIC:o=:v:custos	!	!	!	!	!	!	!	!	!	!	!	!	!	!	!	!	!	!	!	!	!	!	!	!	!	!	!	!	!	!	!	!	!	!LO:SIC:o=:v:custos	!	!	!	!
=21	=21	=21	=21	=21	=21	=21	=21	=21	=21	=21	=21	=21	=21	=21	=21	=21	=21	=21	=21	=21	=21	=21	=21	=21	=21	=21	=21	=21	=21	=21	=21	=21	=21	=21	=21	=21	=21	=21	=21	=21	=21	=21	=21	=21
!	!	!	!	!	!	!	!	!	!	!	!	!	!	!	!	!	!	!	!	!	!LO:PB:g=original	!	!	!	!	!	!	!	!	!	!	!	!	!	!	!	!LO:PB:g=original	!	!	!	!	!	!	!
!	!	!	!	!	!	!	!	!	!	!	!	!	!	!	!	!	!	!	!	!	!LO:TX:a:t=16.	!	!LO:TX:a:t=15.	!	!LO:TX:a:t=15	!	!LO:TX:a:t=15.	!	!LO:TX:a:t=15.	!	!LO:TX:a:t=3.	!	!	!	!LO:TX:a:t=15.	!	!	!	!LO:TX:a:t=15.	!	!LO:SIC:o:s=:v:dopisana belka	!	!LO:TX:a:t=15.	!
!	!	!	!	!	!	!	!	!	!	!	!	!	!	!	!	!	!	!	!	!	!LO:N:vis=00	!	!LO:N:vis=00	!	!LO:N:vis=00	!	!	!	!	!	!LO:N:vis=0	!	!	!	!	!	!	!	!	!	!	!	!	!
8D#X\	.	8cc/L	.	8D#X\	.	8D#X/	.	8r	.	8r	.	2D#X\	-re-	2c\	-re-	2f#X\	-re-	2a\	-re-	2.r	0.r	.	0.r	.	0.r	.	2.r	.	2.r	.	1.r	.	8c\L	.	2.r	.	8cc\L	.	2.r	.	8cc\L	.	2.r	.
8r	.	8g#X/	.	8r	.	8r	.	8f#X/	.	8a/	.	.	.	.	.	.	.	.	.	.	.	.	.	.	.	.	.	.	.	.	.	.	8G#X\	.	.	.	8g#X\	.	.	.	8g#X\	.	.	.
8D#\	.	8a/	.	8D#\	.	8D#/	.	8r	.	8r	.	.	.	.	.	.	.	.	.	.	.	.	.	.	.	.	.	.	.	.	.	.	8A\	.	.	.	8a\	.	.	.	8a\	.	.	.
8r	.	8cc/	.	8r	.	8r	.	8f#/	.	8a/	.	.	.	.	.	.	.	.	.	.	.	.	.	.	.	.	.	.	.	.	.	.	8c\	.	.	.	8cc\	.	.	.	8cc\	.	.	.
.	.	.	.	.	.	.	.	.	.	.	.	.	.	.	.	.	.	.	.	.	.	.	.	.	.	.	.	.	.	.	.	.	8qc/	.	.	.	8qcc/	.	.	.	.	.	.	.
8E\	.	8bn/	.	8E\	.	8E/	.	8r	.	8r	.	4E\	-re	4c\	-re	4e\	-re	4a\	-re	.	.	.	.	.	.	.	.	.	.	.	.	.	8Bn\	.	.	.	8bX\	.	.	.	8bn\	.	.	.
8r	.	8a/J	.	8r	.	8r	.	8c/	.	8a/	.	.	.	.	.	.	.	.	.	.	.	.	.	.	.	.	.	.	.	.	.	.	8A\J	.	.	.	8a\J	.	.	.	8a\J	.	.	.
!	!	!	!	!	!	!	!	!LO:SIC:o=:v:custos	!	!LO:SIC:o=:v:custos	!	!	!	!	!	!	!	!	!	!	!	!	!	!	!	!	!	!	!	!	!	!	!	!	!	!	!	!	!	!	!	!	!	!
=22	=22	=22	=22	=22	=22	=22	=22	=22	=22	=22	=22	=22	=22	=22	=22	=22	=22	=22	=22	=22	=22	=22	=22	=22	=22	=22	=22	=22	=22	=22	=22	=22	=22	=22	=22	=22	=22	=22	=22	=22	=22	=22	=22	=22
!	!	!	!	!	!	!	!	!LO:PB:g=original	!	!LO:LB:g=original	!	!	!	!	!	!	!	!	!	!	!	!	!	!	!	!	!	!	!	!	!	!	!LO:PB:g=original	!	!	!	!	!	!	!	!	!	!	!
8E\	.	2e/	.	8E\	.	8E/	.	8r	.	8r	.	2.E\	no-	2.Bn\	no-	2.e\	no-	4a\	no-	2.r	.	.	.	.	.	.	2.r	.	2.r	.	.	.	2E\	.	2.r	.	2eX/	.	2.r	.	2en/	.	2.r	.
8r	.	.	.	8r	.	8r	.	8Bn/	.	8a/	.	.	.	.	.	.	.	.	.	.	.	.	.	.	.	.	.	.	.	.	.	.	.	.	.	.	.	.	.	.	.	.	.	.
8E\	.	.	.	8E\	.	8E/	.	8r	.	8r	.	.	.	.	.	.	.	8g#X\L	.	.	.	.	.	.	.	.	.	.	.	.	.	.	.	.	.	.	.	.	.	.	.	.	.	.
8r	.	.	.	8r	.	8r	.	8B/	.	8a/	.	.	.	.	.	.	.	8f#X\J	.	.	.	.	.	.	.	.	.	.	.	.	.	.	.	.	.	.	.	.	.	.	.	.	.	.
8E\	.	4r	.	8E\	.	8E/	.	8r	.	8r	.	.	.	.	.	.	.	4g#\	.	.	.	.	.	.	.	.	.	.	.	.	.	.	4r	.	.	.	4r	.	.	.	4r	.	.	.
8r	.	.	.	8r	.	8r	.	8B/	.	8g#X/	.	.	.	.	.	.	.	.	.	.	.	.	.	.	.	.	.	.	.	.	.	.	.	.	.	.	.	.	.	.	.	.	.	.
=23	=23	=23	=23	=23	=23	=23	=23	=23	=23	=23	=23	=23	=23	=23	=23	=23	=23	=23	=23	=23	=23	=23	=23	=23	=23	=23	=23	=23	=23	=23	=23	=23	=23	=23	=23	=23	=23	=23	=23	=23	=23	=23	=23	=23
!	!	!	!	!	!	!	!	!	!	!	!	!	!	!	!	!	!	!	!	!	!	!	!	!	!	!	!	!	!	!	!	!	!LO:TX:a:t=1.	!	!	!	!LO:TX:a:t=13.	!	!	!	!LO:TX:a:t=13.	!	!	!
2AA/	.	2.r	.	2AA/	.	2A/	.	8c/	.	2a/	.	2AA/	-bis	2c\	-bis	2e\	-bis	2a\	-bis	2.r	.	.	.	.	.	.	2.r	.	2.r	.	2.r	.	2.r	.	2.r	.	2.r	.	2.r	.	2.r	.	2.r	.
.	.	.	.	.	.	.	.	4a/	.	.	.	.	.	.	.	.	.	.	.	.	.	.	.	.	.	.	.	.	.	.	.	.	.	.	.	.	.	.	.	.	.	.	.	.
.	.	.	.	.	.	.	.	4a/	.	.	.	.	.	.	.	.	.	.	.	.	.	.	.	.	.	.	.	.	.	.	.	.	.	.	.	.	.	.	.	.	.	.	.	.
4r	.	.	.	4r	.	4r	.	.	.	4r	.	4r	.	4r	.	4r	.	4r	.	.	.	.	.	.	.	.	.	.	.	.	.	.	.	.	.	.	.	.	.	.	.	.	.	.
.	.	.	.	.	.	.	.	8a/	.	.	.	.	.	.	.	.	.	.	.	.	.	.	.	.	.	.	.	.	.	.	.	.	.	.	.	.	.	.	.	.	.	.	.	.
=24	=24	=24	=24	=24	=24	=24	=24	=24	=24	=24	=24	=24	=24	=24	=24	=24	=24	=24	=24	=24	=24	=24	=24	=24	=24	=24	=24	=24	=24	=24	=24	=24	=24	=24	=24	=24	=24	=24	=24	=24	=24	=24	=24	=24
!	!	!	!	!	!	!	!	!	!	!LO:TX:a:t=1.	!	!LO:TX:a:t=9.	!	!LO:TX:a:t=7.	!	!LO:TX:a:t=9.	!	!LO:TX:a:t=7.	!	!	!	!	!	!	!	!	!	!	!	!	!	!	!	!	!	!	!	!	!	!	!	!	!	!
!	!	!	!	!	!	!	!	!	!	!	!	!LO:N:vis=00	!	!LO:N:vis=00	!	!LO:N:vis=00	!	!LO:N:vis=00	!	!	!	!	!	!	!	!	!	!	!	!	!	!	!	!	!	!	!	!	!	!	!	!	!	!
4A\	.	4a/	.	(4A\	.	(>4A/	.	8a/	.	2.r	.	0.r	.	0.r	.	0.r	.	0.r	.	2.r	.	.	.	.	.	.	2.r	.	2.r	.	(4A\	.	(4A\	.	2.r	.	2.r	.	2.r	.	2.r	.	2.r	.
.	.	.	.	.	.	.	.	4a/	.	.	.	.	.	.	.	.	.	.	.	.	.	.	.	.	.	.	.	.	.	.	.	.	.	.	.	.	.	.	.	.	.	.	.	.
4c\	.	4cc\	.	4c\	.	4c/	.	.	.	.	.	.	.	.	.	.	.	.	.	.	.	.	.	.	.	.	.	.	.	.	4c\	.	4c\	.	.	.	.	.	.	.	.	.	.	.
.	.	.	.	.	.	.	.	4a/	.	.	.	.	.	.	.	.	.	.	.	.	.	.	.	.	.	.	.	.	.	.	.	.	.	.	.	.	.	.	.	.	.	.	.	.
4D#X\	.	4d#X/	.	4D#X/)	.	4D#X/	.	.	.	.	.	.	.	.	.	.	.	.	.	.	.	.	.	.	.	.	.	.	.	.	4D#X\	.	4D#X\	.	.	.	.	.	.	.	.	.	.	.
.	.	.	.	.	.	.	.	8a/	.	.	.	.	.	.	.	.	.	.	.	.	.	.	.	.	.	.	.	.	.	.	.	.	.	.	.	.	.	.	.	.	.	.	.	.
=25	=25	=25	=25	=25	=25	=25	=25	=25	=25	=25	=25	=25	=25	=25	=25	=25	=25	=25	=25	=25	=25	=25	=25	=25	=25	=25	=25	=25	=25	=25	=25	=25	=25	=25	=25	=25	=25	=25	=25	=25	=25	=25	=25	=25
!LO:PB:g=original	!	!	!	!LO:PB:g=original	!	!	!	!	!	!	!	!	!	!	!	!	!	!	!	!	!	!	!	!	!	!	!	!	!	!	!	!	!	!	!	!	!	!	!	!	!	!	!	!
!	!	!	!	!	!	!	!	!	!	!	!	!	!	!	!	!	!	!	!	!	!LO:N:vis=00	!	!LO:N:vis=00	!	!LO:N:vis=00	!	!	!	!	!	!	!	!	!	!	!	!	!	!	!	!	!	!	!
4E\	.	4e/	.	4E\	.	4E/)	.	8a/	.	8bn\	.	.	.	.	.	.	.	.	.	2.r	0.r	.	0.r	.	0.r	.	2.r	.	2.r	.	4E\)	.	4E\)	.	2.r	.	2.r	.	2.r	.	2.r	.	2.r	.
.	.	.	.	.	.	.	.	4a/	.	4b\	.	.	.	.	.	.	.	.	.	.	.	.	.	.	.	.	.	.	.	.	.	.	.	.	.	.	.	.	.	.	.	.	.	.
4r	.	4r	.	4r	.	4r	.	.	.	.	.	.	.	.	.	.	.	.	.	.	.	.	.	.	.	.	.	.	.	.	4r	.	4r	.	.	.	.	.	.	.	.	.	.	.
.	.	.	.	.	.	.	.	4g#X/	.	4b\	.	.	.	.	.	.	.	.	.	.	.	.	.	.	.	.	.	.	.	.	.	.	.	.	.	.	.	.	.	.	.	.	.	.
4r	.	4r	.	4r	.	4r	.	.	.	.	.	.	.	.	.	.	.	.	.	.	.	.	.	.	.	.	.	.	.	.	4r	.	4r	.	.	.	.	.	.	.	.	.	.	.
.	.	.	.	.	.	.	.	8g#/	.	8b\	.	.	.	.	.	.	.	.	.	.	.	.	.	.	.	.	.	.	.	.	.	.	.	.	.	.	.	.	.	.	.	.	.	.
!	!	!	!	!	!	!LO:SIC:o=:v:custos	!	!	!	!	!	!	!	!	!	!	!	!	!	!	!	!	!	!	!	!	!	!	!	!	!	!	!	!	!	!	!	!	!	!	!	!	!	!
=26	=26	=26	=26	=26	=26	=26	=26	=26	=26	=26	=26	=26	=26	=26	=26	=26	=26	=26	=26	=26	=26	=26	=26	=26	=26	=26	=26	=26	=26	=26	=26	=26	=26	=26	=26	=26	=26	=26	=26	=26	=26	=26	=26	=26
!	!	!	!	!	!	!LO:PB:g=original	!	!	!	!	!	!	!	!	!	!	!	!	!	!	!	!	!	!	!	!	!	!	!	!	!	!	!	!	!	!	!	!	!	!	!	!	!	!
4Bn\	.	4bn\	.	(4Bn\	.	(4Bn/	.	8g#X/	.	8bn\	.	.	.	.	.	.	.	.	.	2.r	.	.	.	.	.	.	2.r	.	2.r	.	(4Bn\	.	(4Bn\	.	2.r	.	2.r	.	2.r	.	2.r	.	2.r	.
.	.	.	.	.	.	.	.	4g#/	.	4b\	.	.	.	.	.	.	.	.	.	.	.	.	.	.	.	.	.	.	.	.	.	.	.	.	.	.	.	.	.	.	.	.	.	.
4d\	.	4dd\	.	4d\	.	4d\	.	.	.	.	.	.	.	.	.	.	.	.	.	.	.	.	.	.	.	.	.	.	.	.	4d\	.	4d\	.	.	.	.	.	.	.	.	.	.	.
.	.	.	.	.	.	.	.	4dd\	.	4b\	.	.	.	.	.	.	.	.	.	.	.	.	.	.	.	.	.	.	.	.	.	.	.	.	.	.	.	.	.	.	.	.	.	.
4E\	.	4e/	.	4E\	.	4E/	.	.	.	.	.	.	.	.	.	.	.	.	.	.	.	.	.	.	.	.	.	.	.	.	4E\	.	4E\	.	.	.	.	.	.	.	.	.	.	.
.	.	.	.	.	.	.	.	8dd\	.	8b\	.	.	.	.	.	.	.	.	.	.	.	.	.	.	.	.	.	.	.	.	.	.	.	.	.	.	.	.	.	.	.	.	.	.
=27	=27	=27	=27	=27	=27	=27	=27	=27	=27	=27	=27	=27	=27	=27	=27	=27	=27	=27	=27	=27	=27	=27	=27	=27	=27	=27	=27	=27	=27	=27	=27	=27	=27	=27	=27	=27	=27	=27	=27	=27	=27	=27	=27	=27
!	!	!	!	!	!	!	!	!LO:PB:g=original	!	!	!	!	!	!	!	!	!	!	!	!	!	!	!	!	!	!	!	!	!	!	!LO:PB:g=original	!	!	!	!	!	!	!	!	!	!	!	!	!
4F\	.	4f/	.	4F\)	.	4F/)	.	8cc\	.	8bn\	.	.	.	.	.	.	.	.	.	2.r	.	.	.	.	.	.	2.r	.	2.r	.	4F\)	.	4F\)	.	2.r	.	2.r	.	2.r	.	2.r	.	2.r	.
.	.	.	.	.	.	.	.	4cc\	.	4b\	.	.	.	.	.	.	.	.	.	.	.	.	.	.	.	.	.	.	.	.	.	.	.	.	.	.	.	.	.	.	.	.	.	.
4r	.	4r	.	4r	.	4r	.	.	.	.	.	.	.	.	.	.	.	.	.	.	.	.	.	.	.	.	.	.	.	.	4r	.	4r	.	.	.	.	.	.	.	.	.	.	.
.	.	.	.	.	.	.	.	4cc\	.	4a/	.	.	.	.	.	.	.	.	.	.	.	.	.	.	.	.	.	.	.	.	.	.	.	.	.	.	.	.	.	.	.	.	.	.
4r	.	4r	.	4r	.	4r	.	.	.	.	.	.	.	.	.	.	.	.	.	.	.	.	.	.	.	.	.	.	.	.	4r	.	4r	.	.	.	.	.	.	.	.	.	.	.
.	.	.	.	.	.	.	.	8cc\	.	8a/	.	.	.	.	.	.	.	.	.	.	.	.	.	.	.	.	.	.	.	.	.	.	.	.	.	.	.	.	.	.	.	.	.	.
!	!	!	!	!LO:TX:b:t=V&colon;S&colon;	!	!	!	!	!	!	!	!	!	!	!	!	!	!	!	!	!	!	!	!	!	!	!	!	!	!	!	!	!	!	!	!	!	!	!	!	!	!	!	!
=28	=28	=28	=28	=28	=28	=28	=28	=28	=28	=28	=28	=28	=28	=28	=28	=28	=28	=28	=28	=28	=28	=28	=28	=28	=28	=28	=28	=28	=28	=28	=28	=28	=28	=28	=28	=28	=28	=28	=28	=28	=28	=28	=28	=28
!	!	!	!	!LO:LB:g=original	!	!	!	!	!	!LO:PB:g=original	!	!	!	!	!	!	!	!	!	!	!	!	!	!	!	!	!	!	!	!	!	!	!LO:PB:g=original	!	!	!	!	!	!	!	!	!	!	!
!	!	!	!	!	!	!	!	!	!	!	!	!LO:N:vis=00	!	!LO:N:vis=0	!	!LO:N:vis=00	!	!LO:N:vis=0	!	!	!	!	!	!	!	!	!	!	!	!	!	!	!	!	!	!	!	!	!	!	!	!	!	!
4c\	.	8r	.	(4c\	.	(4c\	.	8cc\	.	8a/	.	0.r	.	1.r	.	0.r	.	1.r	.	2.r	.	.	.	.	.	.	2.r	.	2.r	.	(4c\	.	(4c\	.	2.r	.	2.r	.	2.r	.	2.r	.	2.r	.
.	.	4ee\	.	.	.	.	.	4cc\	.	4a/	.	.	.	.	.	.	.	.	.	.	.	.	.	.	.	.	.	.	.	.	.	.	.	.	.	.	.	.	.	.	.	.	.	.
4e\	.	.	.	4e\	.	4e\	.	.	.	.	.	.	.	.	.	.	.	.	.	.	.	.	.	.	.	.	.	.	.	.	4e\	.	4e\	.	.	.	.	.	.	.	.	.	.	.
.	.	4a/	.	.	.	.	.	4cc#X\	.	4ee\	.	.	.	.	.	.	.	.	.	.	.	.	.	.	.	.	.	.	.	.	.	.	.	.	.	.	.	.	.	.	.	.	.	.
4G\	.	.	.	4G\	.	4G/)	.	.	.	.	.	.	.	.	.	.	.	.	.	.	.	.	.	.	.	.	.	.	.	.	4G\)	.	4G\)	.	.	.	.	.	.	.	.	.	.	.
.	.	8cc#X\	.	.	.	.	.	8a/	.	8ee\	.	.	.	.	.	.	.	.	.	.	.	.	.	.	.	.	.	.	.	.	.	.	.	.	.	.	.	.	.	.	.	.	.	.
=29	=29	=29	=29	=29	=29	=29	=29	=29	=29	=29	=29	=29	=29	=29	=29	=29	=29	=29	=29	=29	=29	=29	=29	=29	=29	=29	=29	=29	=29	=29	=29	=29	=29	=29	=29	=29	=29	=29	=29	=29	=29	=29	=29	=29
*	*	*	*	*	*	*2\right	*	*	*	*	*	*	*	*	*	*	*	*	*	*	*	*	*	*	*	*	*	*	*	*	*	*	*	*	*	*	*	*	*	*	*	*	*	*
!	!	!	!	!	!	!	!	!	!	!	!	!	!	!	!	!	!	!	!	!	!LO:N:vis=00	!	!LO:N:vis=00	!	!LO:N:vis=00	!	!	!	!	!	!	!	!	!	!	!	!	!	!	!	!	!	!	!
4Fn\	.	2dd\	.	4Fn\)	.	2f\	.	[2.a/	.	8dd\	.	.	.	.	.	.	.	.	.	2.r	0.r	.	0.r	.	0.r	.	2.r	.	2.r	.	2F\	.	2F\	.	2.r	.	2.r	.	2.r	.	2.r	.	2.r	.
.	.	.	.	.	.	.	.	.	.	4dd\	.	.	.	.	.	.	.	.	.	.	.	.	.	.	.	.	.	.	.	.	.	.	.	.	.	.	.	.	.	.	.	.	.	.
4r	.	.	.	4r	.	.	.	.	.	.	.	.	.	.	.	.	.	.	.	.	.	.	.	.	.	.	.	.	.	.	.	.	.	.	.	.	.	.	.	.	.	.	.	.
.	.	.	.	.	.	.	.	.	.	4dd\	.	.	.	.	.	.	.	.	.	.	.	.	.	.	.	.	.	.	.	.	.	.	.	.	.	.	.	.	.	.	.	.	.	.
4E\	.	4ccn\	.	4E\	.	4e\	.	.	.	.	.	.	.	.	.	.	.	.	.	.	.	.	.	.	.	.	.	.	.	.	4E\	.	4E\	.	.	.	.	.	.	.	.	.	.	.
.	.	.	.	.	.	.	.	.	.	8ccn\	.	.	.	.	.	.	.	.	.	.	.	.	.	.	.	.	.	.	.	.	.	.	.	.	.	.	.	.	.	.	.	.	.	.
=30	=30	=30	=30	=30	=30	=30	=30	=30	=30	=30	=30	=30	=30	=30	=30	=30	=30	=30	=30	=30	=30	=30	=30	=30	=30	=30	=30	=30	=30	=30	=30	=30	=30	=30	=30	=30	=30	=30	=30	=30	=30	=30	=30	=30
4D\	.	2bn\	.	4D\	.	2d\ 2f\	.	2a/]	.	8bn\	.	.	.	2.r	.	.	.	2.r	.	2.r	.	.	.	.	.	.	2.r	.	2.r	.	2D\	.	2D\	.	2.r	.	2.r	.	2.r	.	2.r	.	2.r	.
.	.	.	.	.	.	.	.	.	.	4b\	.	.	.	.	.	.	.	.	.	.	.	.	.	.	.	.	.	.	.	.	.	.	.	.	.	.	.	.	.	.	.	.	.	.
4r	.	.	.	4r	.	.	.	.	.	.	.	.	.	.	.	.	.	.	.	.	.	.	.	.	.	.	.	.	.	.	.	.	.	.	.	.	.	.	.	.	.	.	.	.
.	.	.	.	.	.	.	.	.	.	4b\	.	.	.	.	.	.	.	.	.	.	.	.	.	.	.	.	.	.	.	.	.	.	.	.	.	.	.	.	.	.	.	.	.	.
4E\	.	4ee\	.	4E\	.	4e\	.	4g#X/	.	.	.	.	.	.	.	.	.	.	.	.	.	.	.	.	.	.	.	.	.	.	4E\	.	4E\	.	.	.	.	.	.	.	.	.	.	.
.	.	.	.	.	.	.	.	.	.	8b\	.	.	.	.	.	.	.	.	.	.	.	.	.	.	.	.	.	.	.	.	.	.	.	.	.	.	.	.	.	.	.	.	.	.
=31	=31	=31	=31	=31	=31	=31	=31	=31	=31	=31	=31	=31	=31	=31	=31	=31	=31	=31	=31	=31	=31	=31	=31	=31	=31	=31	=31	=31	=31	=31	=31	=31	=31	=31	=31	=31	=31	=31	=31	=31	=31	=31	=31	=31
!	!	!	!	!	!	!	!	!LO:PB:g=original	!	!	!	!	!	!	!	!	!	!	!	!LO:PB:g=original	!	!	!	!	!	!	!	!	!	!	!	!	!	!	!	!	!	!	!	!	!	!	!	!
*^	*	*	*	*^	*	*	*	*	*	*	*	*	*	*	*	*	*	*	*	*	*	*	*	*	*	*	*	*	*	*	*	*	*	*	*	*	*	*	*	*	*	*	*	*
8A/	2.r	.	2a/	.	8A/	2AA\	.	8A/	.	8r	.	8r	.	.	.	4r	.	.	.	2.a\	A-	2.r	.	.	.	.	.	.	2.r	.	2.r	.	2AA/	.	2AA/	.	2.r	.	2.r	.	2.r	.	2.r	.	2.r	.
8rB	.	.	.	.	8r	.	.	8r	.	8c/	.	8a/	.	.	.	.	.	.	.	.	.	.	.	.	.	.	.	.	.	.	.	.	.	.	.	.	.	.	.	.	.	.	.	.	.	.
8A/	.	.	.	.	8A/	.	.	8A/	.	8r	.	8r	.	.	.	[2A\	A-	.	.	.	.	.	.	.	.	.	.	.	.	.	.	.	.	.	.	.	.	.	.	.	.	.	.	.	.	.
8rB	.	.	.	.	8r	.	.	8r	.	8c/	.	8a/	.	.	.	.	.	.	.	.	.	.	.	.	.	.	.	.	.	.	.	.	.	.	.	.	.	.	.	.	.	.	.	.	.	.
8A/	.	.	4r	.	8A/	4r	.	8A/	.	8r	.	8r	.	.	.	.	.	.	.	.	.	.	.	.	.	.	.	.	.	.	.	.	4r	.	4r	.	.	.	.	.	.	.	.	.	.	.
8rB	.	.	.	.	8r	.	.	8r	.	8c/	.	8a/	.	.	.	.	.	.	.	.	.	.	.	.	.	.	.	.	.	.	.	.	.	.	.	.	.	.	.	.	.	.	.	.	.	.
!	!	!	!	!	!	!	!	!	!	!LO:SIC:o=:v:custos	!	!	!	!	!	!	!	!	!	!	!	!	!	!	!	!	!	!	!	!	!	!	!	!	!	!	!	!	!	!	!	!	!	!	!	!
=32	=32	=32	=32	=32	=32	=32	=32	=32	=32	=32	=32	=32	=32	=32	=32	=32	=32	=32	=32	=32	=32	=32	=32	=32	=32	=32	=32	=32	=32	=32	=32	=32	=32	=32	=32	=32	=32	=32	=32	=32	=32	=32	=32	=32	=32	=32
!LO:PB:g=original	!	!	!	!	!	!	!	!	!	!	!	!	!	!	!	!	!	!	!	!	!	!	!	!	!	!	!	!	!	!	!	!	!	!	!	!	!	!	!	!	!	!	!	!	!	!
!	!	!	!	!	!	!	!	!	!	!	!	!	!	!	!	!	!	!	!	!	!	!	!	!	!	!	!	!	!	!	!	!	!LO:TX:a:t=4.	!	!LO:TX:a:t=4.	!	!	!	!	!	!	!	!	!	!	!
!	!	!	!	!	!	!	!	!	!	!	!	!	!	!	!	!	!	!	!	!	!	!	!	!	!	!	!	!	!	!	!	!	!LO:N:vis=00	!	!LO:N:vis=00	!	!	!	!	!	!	!	!	!	!	!
8A/	2.r	.	2.r	.	8A/	2.r	.	8A/	.	8r	.	8r	.	2.r	.	4A/]	.	2.r	.	2.bn\	-gnus	2.r	.	.	.	.	.	.	2.r	.	2.r	.	0.r	.	0.r	.	2.r	.	2.r	.	2.r	.	2.r	.	2.r	.
8rB	.	.	.	.	8r	.	.	8r	.	8d/	.	8bn/	.	.	.	.	.	.	.	.	.	.	.	.	.	.	.	.	.	.	.	.	.	.	.	.	.	.	.	.	.	.	.	.	.	.
8G/	.	.	.	.	8G/	.	.	8G/	.	8r	.	8r	.	.	.	4G/	.	.	.	.	.	.	.	.	.	.	.	.	.	.	.	.	.	.	.	.	.	.	.	.	.	.	.	.	.	.
8rB	.	.	.	.	8r	.	.	8r	.	8d/	.	8b/	.	.	.	.	.	.	.	.	.	.	.	.	.	.	.	.	.	.	.	.	.	.	.	.	.	.	.	.	.	.	.	.	.	.
8F/	.	.	.	.	8F/	.	.	8F/	.	8r	.	8r	.	.	.	4F/	-gnus	.	.	.	.	.	.	.	.	.	.	.	.	.	.	.	.	.	.	.	.	.	.	.	.	.	.	.	.	.
8rB	.	.	.	.	8r	.	.	8r	.	8d/	.	8b/	.	.	.	.	.	.	.	.	.	.	.	.	.	.	.	.	.	.	.	.	.	.	.	.	.	.	.	.	.	.	.	.	.	.
!	!	!	!	!	!	!	!	!	!	!	!	!LO:SIC:o=:v:custos	!	!	!	!	!	!	!	!	!	!	!	!	!	!	!	!	!	!	!	!	!	!	!	!	!	!	!	!	!	!	!	!	!	!
*v	*v	*	*	*	*v	*v	*	*	*	*	*	*	*	*	*	*	*	*	*	*	*	*	*	*	*	*	*	*	*	*	*	*	*	*	*	*	*	*	*	*	*	*	*	*	*	*
=33	=33	=33	=33	=33	=33	=33	=33	=33	=33	=33	=33	=33	=33	=33	=33	=33	=33	=33	=33	=33	=33	=33	=33	=33	=33	=33	=33	=33	=33	=33	=33	=33	=33	=33	=33	=33	=33	=33	=33	=33	=33	=33	=33	=33
!	!	!	!	!LO:PB:g=original	!	!	!	!	!	!LO:PB:g=original	!	!	!	!LO:PB:g=original	!	!	!	!	!	!	!	!	!	!	!	!	!	!	!	!	!	!	!	!	!	!	!	!	!	!	!	!	!	!
!	!	!	!	!	!	!	!	!	!	!	!	!	!	!	!	!	!	!	!	!	!LO:N:vis=00	!	!LO:N:vis=0	!	!LO:N:vis=0	!	!	!	!	!	!	!	!	!	!	!	!	!	!	!	!	!	!	!
8C/	.	2.r	.	8C/	.	8c\	.	8r	.	8r	.	4r	.	2.E/	A-	2.g\	A-	2cc\	De-	2.r	0.r	.	1.r	.	1.r	.	2.r	.	2.r	.	.	.	.	.	2.r	.	2.r	.	2.r	.	2.r	.	2.r	.
8r	.	.	.	8r	.	8r	.	8e/	.	8cc\	.	.	.	.	.	.	.	.	.	.	.	.	.	.	.	.	.	.	.	.	.	.	.	.	.	.	.	.	.	.	.	.	.	.
8C/	.	.	.	8C/	.	8c\	.	8r	.	8r	.	[2C/	A-	.	.	.	.	.	.	.	.	.	.	.	.	.	.	.	.	.	.	.	.	.	.	.	.	.	.	.	.	.	.	.
8r	.	.	.	8r	.	8r	.	8e/	.	8cc\	.	.	.	.	.	.	.	.	.	.	.	.	.	.	.	.	.	.	.	.	.	.	.	.	.	.	.	.	.	.	.	.	.	.
8C/	.	.	.	8C/	.	8c\	.	8r	.	8r	.	.	.	.	.	.	.	8bn\L	.	.	.	.	.	.	.	.	.	.	.	.	.	.	.	.	.	.	.	.	.	.	.	.	.	.
8r	.	.	.	8r	.	8r	.	8e/	.	8cc\	.	.	.	.	.	.	.	8cc\J	.	.	.	.	.	.	.	.	.	.	.	.	.	.	.	.	.	.	.	.	.	.	.	.	.	.
!	!	!	!	!	!	!	!	!	!	!	!	!	!	!	!	!LO:SIC:o=:v:custos	!	!	!	!	!	!	!	!	!	!	!	!	!	!	!	!	!	!	!	!	!	!	!	!	!	!	!	!
=34	=34	=34	=34	=34	=34	=34	=34	=34	=34	=34	=34	=34	=34	=34	=34	=34	=34	=34	=34	=34	=34	=34	=34	=34	=34	=34	=34	=34	=34	=34	=34	=34	=34	=34	=34	=34	=34	=34	=34	=34	=34	=34	=34	=34
!	!	!	!	!	!	!	!	!	!	!	!	!	!	!	!	!LO:PB:g=original	!	!	!	!	!	!	!	!	!	!	!	!	!	!	!	!	!	!	!	!	!	!	!	!	!	!	!	!
8C/	.	2.r	.	8C/	.	8c\	.	8r	.	8r	.	4C/]	.	4F/	.	4a\	.	4a\	-i	2.r	.	.	.	.	.	.	2.r	.	2.r	.	.	.	.	.	2.r	.	2.r	.	2.r	.	2.r	.	2.r	.
8r	.	.	.	8r	.	8r	.	8f/	.	8a/	.	.	.	.	.	.	.	.	.	.	.	.	.	.	.	.	.	.	.	.	.	.	.	.	.	.	.	.	.	.	.	.	.	.
8BB-X/	.	.	.	8BB-/	.	8B-X\	.	8r	.	8r	.	4BB-X/	.	4E/	.	4g\	.	4cc\	A-	.	.	.	.	.	.	.	.	.	.	.	.	.	.	.	.	.	.	.	.	.	.	.	.	.
8r	.	.	.	8r	.	8r	.	8e/	.	8g/ 8cc/	.	.	.	.	.	.	.	.	.	.	.	.	.	.	.	.	.	.	.	.	.	.	.	.	.	.	.	.	.	.	.	.	.	.
8AA/	.	.	.	8AA/	.	8A/	.	8r	.	8r	.	4AA/	-gnus	4F/	-gnus	4cc\	-gnus	4ff\	-gnus	.	.	.	.	.	.	.	.	.	.	.	.	.	.	.	.	.	.	.	.	.	.	.	.	.
8r	.	.	.	8r	.	8r	.	8cc\	.	8ff\	.	.	.	.	.	.	.	.	.	.	.	.	.	.	.	.	.	.	.	.	.	.	.	.	.	.	.	.	.	.	.	.	.	.
!	!	!	!	!	!	!LO:SIC:o=:v:custos	!	!	!	!	!	!	!	!	!	!	!	!	!	!	!	!	!	!	!	!	!	!	!	!	!	!	!	!	!	!	!	!	!	!	!	!	!	!
=35	=35	=35	=35	=35	=35	=35	=35	=35	=35	=35	=35	=35	=35	=35	=35	=35	=35	=35	=35	=35	=35	=35	=35	=35	=35	=35	=35	=35	=35	=35	=35	=35	=35	=35	=35	=35	=35	=35	=35	=35	=35	=35	=35	=35
!	!	!	!	!	!	!LO:PB:g=original	!	!	!	!	!	!	!	!	!	!	!	!	!	!	!	!	!	!	!	!	!	!	!	!	!	!	!	!	!	!	!	!	!	!	!	!	!	!
8GG/	.	2.r	.	8GG/	.	8G/	.	8r	.	8r	.	2.GG/	De-	2.G/	De-	2cc\	De-	2ee\	De-	2.r	.	.	2.r	.	2.r	.	2.r	.	2.r	.	.	.	.	.	2.r	.	2.r	.	2.r	.	2.r	.	2.r	.
8r	.	.	.	8r	.	8r	.	8cc\	.	8ee\	.	.	.	.	.	.	.	.	.	.	.	.	.	.	.	.	.	.	.	.	.	.	.	.	.	.	.	.	.	.	.	.	.	.
8GG/	.	.	.	8GG/	.	8G/	.	8r	.	8r	.	.	.	.	.	.	.	.	.	.	.	.	.	.	.	.	.	.	.	.	.	.	.	.	.	.	.	.	.	.	.	.	.	.
8r	.	.	.	8r	.	8r	.	8cc\	.	8ee\	.	.	.	.	.	.	.	.	.	.	.	.	.	.	.	.	.	.	.	.	.	.	.	.	.	.	.	.	.	.	.	.	.	.
8GG/	.	.	.	8GG/	.	8G/	.	8r	.	8r	.	.	.	.	.	8.f\L	.	8.bn\L	.	.	.	.	.	.	.	.	.	.	.	.	.	.	.	.	.	.	.	.	.	.	.	.	.	.
8r	.	.	.	8r	.	8r	.	8G/ 8f/	.	8bn\	.	.	.	.	.	.	.	.	.	.	.	.	.	.	.	.	.	.	.	.	.	.	.	.	.	.	.	.	.	.	.	.	.	.
.	.	.	.	.	.	.	.	.	.	.	.	.	.	.	.	16e\Jk	.	16cc\Jk	.	.	.	.	.	.	.	.	.	.	.	.	.	.	.	.	.	.	.	.	.	.	.	.	.	.
=36	=36	=36	=36	=36	=36	=36	=36	=36	=36	=36	=36	=36	=36	=36	=36	=36	=36	=36	=36	=36	=36	=36	=36	=36	=36	=36	=36	=36	=36	=36	=36	=36	=36	=36	=36	=36	=36	=36	=36	=36	=36	=36	=36	=36
!	!	!	!	!	!	!	!	!LO:PB:g=original	!	!	!	!	!	!	!	!	!	!	!	!	!	!	!	!	!	!	!	!	!	!	!	!	!	!	!	!	!	!	!	!	!	!	!	!
2C/	.	8r	.	2C/	.	2c\	.	2G/ 2e/	.	2cc\	.	2C/	-i	2G/	-i	2e\	-i	2cc\	-i	2.r	.	.	8r	.	8r	.	8r	.	8r	.	8r	.	8r	.	8r	.	8r	.	8r	.	8r	.	8r	.
.	.	4c/ 4cc/	.	.	.	.	.	.	.	.	.	.	.	.	.	.	.	.	.	.	.	.	4cc\	<	4cc\	<	4c/	<	4c/	<	4C/	<	4C/	<	4cc\	<	4cc\	<	4cc\	<	4ccc\	<	4ccc\	<
.	.	4c/ 4cc/	.	.	.	.	.	.	.	.	.	.	.	.	.	.	.	.	.	.	.	.	4cc\	.	4cc\	.	4c/	.	4c/	.	4C/	.	4C/	.	4cc\	.	4cc\	.	4cc\	.	4ccc\	.	4ccc\	.
4r	.	.	.	4r	.	4r	.	4r	.	4r	.	4C/	qui	4c\	qui	4c\	qui	4cc\	qui	.	.	.	.	.	.	.	.	.	.	.	.	.	.	.	.	.	.	.	.	.	.	.	.	.
.	.	8c/ 8cc/	.	.	.	.	.	.	.	.	.	.	.	.	.	.	.	.	.	.	.	.	8cc\	[	8cc\	[	8c/	[	8c/	[	8C/	[	8C/	[	8cc\	[	8cc\	[	8cc\	[	8ccc\	[	8ccc\	[
=37	=37	=37	=37	=37	=37	=37	=37	=37	=37	=37	=37	=37	=37	=37	=37	=37	=37	=37	=37	=37	=37	=37	=37	=37	=37	=37	=37	=37	=37	=37	=37	=37	=37	=37	=37	=37	=37	=37	=37	=37	=37	=37	=37	=37
!LO:PB:g=original	!	!	!	!LO:PB:g=original	!	!	!	!	!	!	!	!	!	!	!	!	!	!LO:LB:g=original	!	!	!	!	!	!	!	!	!	!	!	!	!LO:PB:g=original	!	!LO:PB:g=original	!	!	!	!	!	!	!	!	!	!LO:PB:g=original	!
8.F\L	.	4cc\ 4ff\ 4aa\	f	8.F\L	ff	8.F/L	ff	8.cc\L 8.ff\	ff	8.cc\L 8.aa\	ff	(8.F\L	tol-	4f\	tol-	4a\	tol-	4cc\	tol-	4F/	8.F\L	f	4cc\	ff	4cc\	ff	4f\	ff	4f\	ff	4F\	.	4F\	ff	4ff\	ff	4aa\	ff	4ff\	ff	4aa\	ff	4ccc\	ff
16A\Jk	.	.	.	16A\Jk	.	16A/Jk	.	16cc\Jk 16ff\	.	16cc\Jk 16aa\	.	16A\Jk)	.	.	.	.	.	.	.	.	16A\Jk	.	.	.	.	.	.	.	.	.	.	ff	.	.	.	.	.	.	.	.	.	.	.	.
4c\	.	4cc\ 4ee\ 4gg\	.	4c\	.	4c/	.	4cc\ 4ee\	.	4cc\ 4gg\	.	4c\	-lis	4e\	-lis	4g\	-lis	4cc\	-lis	4C/	4c\	.	4cc\	.	4cc\	.	4c/	.	4c/	.	4C/	.	4C/	.	4ee\	.	4gg\	.	4ee\	.	4gg\	.	4ccc\	.
4r	.	4r	.	4r	.	4r	.	4r	.	4r	.	4C/	qui	4G/	qui	4e\	qui	4cc\	qui	4r	4r	.	4r	.	4r	.	4r	.	4r	.	4r	.	4r	.	4r	.	4r	.	4r	.	4r	.	4r	.
!	!	!	!	!	!	!	!	!	!	!	!	!	!	!	!	!	!	!	!	!	!	!	!	!	!	!	!	!	!	!	!	!	!	!	!	!	!	!	!	!	!LO:SIC:o=:v:custos	!	!	!
=38	=38	=38	=38	=38	=38	=38	=38	=38	=38	=38	=38	=38	=38	=38	=38	=38	=38	=38	=38	=38	=38	=38	=38	=38	=38	=38	=38	=38	=38	=38	=38	=38	=38	=38	=38	=38	=38	=38	=38	=38	=38	=38	=38	=38
!	!	!	!	!	!	!	!	!	!	!	!	!LO:PB:g=original	!	!	!	!	!	!	!	!	!	!	!	!	!	!	!	!	!	!	!	!	!	!	!	!	!LO:PB:g=original	!	!	!	!LO:LB:g=original	!	!	!
!	!	!	!	!	!	!	!	!	!	!	!	!	!	!	!	!	!	!	!	!LO:TX:a:t=22.	!LO:TX:a:t=3.	!	!LO:TX:a:t=3.	!	!LO:TX:a:t=3.	!	!LO:TX:a:t=3.	!	!LO:TX:a:t=3.	!	!LO:TX:a:t=3.	!	!LO:TX:a:t=3.	!	!LO:TX:a:t=3.	!	!LO:TX:a:t=3.	!	!LO:TX:a:t=3.	!	!LO:TX:a:t=3.	!	!LO:TX:a:t=3.	!
!	!	!	!	!	!	!	!	!	!	!	!	!	!	!	!	!	!	!	!	!	!LO:N:vis=0	!	!LO:N:vis=0	!	!LO:N:vis=0	!	!LO:N:vis=0	!	!LO:N:vis=0	!	!LO:N:vis=0	!	!LO:N:vis=0	!	!LO:N:vis=0	!	!LO:N:vis=0	!	!LO:N:vis=0	!	!LO:N:vis=0	!	!LO:N:vis=0	!
4r	.	2.r	.	4r	.	4r	.	4r	.	4r	.	4D/	tol-	4G/	tol-	8.g\L	tol-	4bn\	tol-	2.r	1.r	.	1.r	.	1.r	.	1.r	.	1.r	.	1.r	.	1.r	.	1.r	.	1.r	.	1.r	.	1.r	.	1.r	.
.	.	.	.	.	.	.	.	.	.	.	.	.	.	.	.	16f\Jk	.	.	.	.	.	.	.	.	.	.	.	.	.	.	.	.	.	.	.	.	.	.	.	.	.	.	.	.
4r	.	.	.	4r	.	4r	.	4r	.	4r	.	4C/	-lis	4G/	-lis	4e\	-lis	4cc\	-lis	.	.	.	.	.	.	.	.	.	.	.	.	.	.	.	.	.	.	.	.	.	.	.	.	.
8BBn/	p	.	.	8BBn/	p	8r	.	8r	.	8r	.	4BBn/	pec-	4G/	pec-	4d\	pec-	4g\	pec-	.	.	.	.	.	.	.	.	.	.	.	.	.	.	.	.	.	.	.	.	.	.	.	.	.
8r	.	.	.	8r	.	8Bn/	p	8g/	p	8dd\	p	.	.	.	.	.	.	.	.	.	.	.	.	.	.	.	.	.	.	.	.	.	.	.	.	.	.	.	.	.	.	.	.	.
!	!	!	!	!	!	!	!	!	!	!	!	!	!	!LO:SIC:o=:v:custos	!	!	!	!	!	!	!	!	!	!	!	!	!	!	!	!	!	!	!	!	!	!	!	!	!	!	!	!	!	!
=39	=39	=39	=39	=39	=39	=39	=39	=39	=39	=39	=39	=39	=39	=39	=39	=39	=39	=39	=39	=39	=39	=39	=39	=39	=39	=39	=39	=39	=39	=39	=39	=39	=39	=39	=39	=39	=39	=39	=39	=39	=39	=39	=39	=39
!	!	!	!	!	!	!	!	!	!	!LO:PB:g=original	!	!	!	!LO:LB:g=original	!	!	!	!	!	!	!	!	!	!	!	!	!	!	!	!	!	!	!	!	!	!	!	!	!	!	!	!	!	!
8C/	.	2.r	.	8C/	.	8c/	.	8r	.	8r	.	2C/	-ca-	(4G/	-ca-	(4e\	-ca-	(4g\	-ca-	2.r	.	.	.	.	.	.	.	.	.	.	.	.	.	.	.	.	.	.	.	.	.	.	.	.
8r	.	.	.	8r	.	8r	.	8g/	.	8ee\	.	.	.	.	.	.	.	.	.	.	.	.	.	.	.	.	.	.	.	.	.	.	.	.	.	.	.	.	.	.	.	.	.	.
8C/	.	.	.	8C/	.	8c/	.	8r	.	8r	.	.	.	4d\)	.	4f#X\)	.	4a\)	.	.	.	.	.	.	.	.	.	.	.	.	.	.	.	.	.	.	.	.	.	.	.	.	.	.
8r	.	.	.	8r	.	8r	.	8a/	.	8ff#X\	.	.	.	.	.	.	.	.	.	.	.	.	.	.	.	.	.	.	.	.	.	.	.	.	.	.	.	.	.	.	.	.	.	.
8BBn/	.	.	.	8BBn/	.	8Bn/	.	8r	.	8r	.	4BBn/	-ta	4d\	-ta	4g\	-ta	4g\	-ta	.	.	.	.	.	.	.	.	.	.	.	.	.	.	.	.	.	.	.	.	.	.	.	.	.
8r	.	.	.	8r	.	8r	.	8dd\	.	8gg\	.	.	.	.	.	.	.	.	.	.	.	.	.	.	.	.	.	.	.	.	.	.	.	.	.	.	.	.	.	.	.	.	.	.
=40	=40	=40	=40	=40	=40	=40	=40	=40	=40	=40	=40	=40	=40	=40	=40	=40	=40	=40	=40	=40	=40	=40	=40	=40	=40	=40	=40	=40	=40	=40	=40	=40	=40	=40	=40	=40	=40	=40	=40	=40	=40	=40	=40	=40
!	!	!	!	!	!	!LO:PB:g=original	!	!	!	!	!	!	!	!	!	!LO:PB:g=original	!	!	!	!	!	!	!	!	!	!	!	!	!	!	!	!	!	!	!	!	!	!	!	!	!	!	!	!
8AA/	.	2.r	.	8AA/	.	8A/	.	8r	.	8r	.	[2AA/	mun-	[2c\	mun-	4g\	mun-	2cc\	mun-	2.r	2.r	.	2.r	.	2.r	.	2.r	.	2.r	.	2.r	.	2.r	.	2.r	.	2.r	.	2.r	.	2.r	.	2.r	.
8r	.	.	.	8r	.	8r	.	8cc\	.	8gg\	.	.	.	.	.	.	.	.	.	.	.	.	.	.	.	.	.	.	.	.	.	.	.	.	.	.	.	.	.	.	.	.	.	.
8AA/	.	.	.	8AA/	.	8A/	.	8r	.	8r	.	.	.	.	.	4e\	.	.	.	.	.	.	.	.	.	.	.	.	.	.	.	.	.	.	.	.	.	.	.	.	.	.	.	.
8r	.	.	.	8r	.	8r	.	8cc\	.	8gg\	.	.	.	.	.	.	.	.	.	.	.	.	.	.	.	.	.	.	.	.	.	.	.	.	.	.	.	.	.	.	.	.	.	.
8AA/	.	.	.	8AA/	.	8A/	.	8r	.	8r	.	8.AA/L]	.	8.c\L]	.	8.f#X\L	.	8.cc\L	.	.	.	.	.	.	.	.	.	.	.	.	.	.	.	.	.	.	.	.	.	.	.	.	.	.
8r	.	.	.	8r	.	8r	.	8cc\	.	8ff#X\	.	.	.	.	.	.	.	.	.	.	.	.	.	.	.	.	.	.	.	.	.	.	.	.	.	.	.	.	.	.	.	.	.	.
.	.	.	.	.	.	.	.	.	.	.	.	16GG/Jk	.	16d\Jk	.	16g\Jk	.	16bn\Jk	.	.	.	.	.	.	.	.	.	.	.	.	.	.	.	.	.	.	.	.	.	.	.	.	.	.
=41	=41	=41	=41	=41	=41	=41	=41	=41	=41	=41	=41	=41	=41	=41	=41	=41	=41	=41	=41	=41	=41	=41	=41	=41	=41	=41	=41	=41	=41	=41	=41	=41	=41	=41	=41	=41	=41	=41	=41	=41	=41	=41	=41	=41
!	!	!	!	!LO:PB:g=original	!	!	!	!LO:PB:g=original	!	!	!	!	!	!	!	!	!	!	!	!	!	!	!	!	!	!	!LO:PB:g=original	!	!LO:PB:g=original	!	!	!	!	!	!	!	!	!	!LO:PB:g=original	!	!	!	!	!
8GG/	.	4r	.	8GG/	.	8G/	.	8r	.	8r	.	2GG/	-di	2d\	-di	2g\	-di	2bn\	-di	2.r	4r	.	4r	.	4r	.	4r	.	4r	.	4r	.	4r	.	4r	.	4r	.	4r	.	4r	.	4r	.
8r	.	.	.	8r	.	8r	.	8bn\	.	8gg\	.	.	.	.	.	.	.	.	.	.	.	.	.	.	.	.	.	.	.	.	.	.	.	.	.	.	.	.	.	.	.	.	.	.
8G\	.	4r	.	8G\	.	8g\	.	8r	.	8r	.	.	.	.	.	.	.	.	.	.	4r	.	4r	.	4r	.	4r	.	4r	.	4r	.	4r	.	4r	.	4r	.	4r	.	4r	.	4r	.
8r	.	.	.	8r	.	8r	.	8b\	.	8gg\	.	.	.	.	.	.	.	.	.	.	.	.	.	.	.	.	.	.	.	.	.	.	.	.	.	.	.	.	.	.	.	.	.	.
8F\	.	8.a-X\L 8.ff\	f	8F\	f	8f\	f	8r	.	8r	.	8.F\	mi-	8.c\	mi-	8.a-X\	mi-	8.cc\	mi-	.	4F\	f	8.f/L	f	8.f/L	f	8.f\L	f	8.f\L	f	8.F\L	f	8.A-X\L	f	8.a-X\L	f	8.ff\L	f	8.a-X/L	f	8.ff\L	f	8.ff\L	f
8r	.	.	.	8r	.	8r	.	8cc\	f	8aa-X\	f	.	.	.	.	.	.	.	.	.	.	.	.	.	.	.	.	.	.	.	.	.	.	.	.	.	.	.	.	.	.	.	.	.
.	.	16a-\Jk 16ff\	.	.	.	.	.	.	.	.	.	16F\	-se-	16c\	-se-	16a-\	-se-	16cc\	-se-	.	.	.	16f/Jk	.	16f/Jk	.	16f\Jk	.	16f\Jk	.	16F\Jk	.	16A-\Jk	.	16a-\Jk	.	16ff\Jk	.	16a-/Jk	.	16ff\Jk	.	16ff\Jk	.
=42	=42	=42	=42	=42	=42	=42	=42	=42	=42	=42	=42	=42	=42	=42	=42	=42	=42	=42	=42	=42	=42	=42	=42	=42	=42	=42	=42	=42	=42	=42	=42	=42	=42	=42	=42	=42	=42	=42	=42	=42	=42	=42	=42	=42
!LO:PB:g=original	!	!	!	!	!	!	!	!	!	!	!	!	!	!	!	!	!	!LO:PB:g=original	!	!	!	!	!LO:PB:g=original	!	!	!	!	!	!	!	!	!	!	!	!LO:PB:g=original	!	!	!	!	!	!	!	!	!
8F\	.	4a-X\ 4ff\	.	8F\	p	8f\	.	8r	.	8r	.	4F\	-re-	4c\	-re-	4a-X\	-re-	4cc\	-re-	2.r	4F\	p	4f/	p	4f/	p	4f\	p	4f\	p	4F\	p	4A-X\	p	4a-X\	p	4ff\	p	4a-X/	.	4ff\	p	4ff\	p
!	!	!	!	!	!	!	!	!	!	!LO:SIC:s=:v:=8aa-	!	!	!	!	!	!	!	!	!	!	!	!	!	!	!	!	!	!	!	!	!	!	!	!	!	!	!	!	!	!	!	!	!	!
8r	.	.	p	8r	.	8r	.	8cc\	p	8aa\	p	.	.	.	.	.	.	.	.	.	.	.	.	.	.	.	.	.	.	.	.	.	.	.	.	.	.	.	.	.	.	.	.	.
8F\	.	4r	.	8F\	.	8f\	.	8r	.	8r	.	8F\	-re	8c\	-re	8a-\	-re	8cc\	-re	.	4r	.	4r	.	4r	.	4r	.	4r	.	4r	.	4r	.	4r	.	4r	.	4r	.	4r	.	4r	.
!	!	!	!	!	!	!	!	!	!	!LO:SIC:s=:v:=8aa-	!	!	!	!	!	!	!	!	!	!	!	!	!	!	!	!	!	!	!	!	!	!	!	!	!	!	!	!	!	!	!	!	!	!
8r	.	.	.	8r	.	8r	.	8cc\	.	8aa\	.	8r	.	8r	.	8r	.	8r	.	.	.	.	.	.	.	.	.	.	.	.	.	.	.	.	.	.	.	.	.	.	.	.	.	.
8D\	.	4r	.	8D\	.	8d\	.	8r	.	8r	.	8.D\	mi-	4r	.	8.a-\	mi-	8.cc\	mi-	.	4r	.	4r	.	4r	.	4r	.	4r	.	4r	.	4r	.	4r	.	4r	.	4r	.	4r	.	4r	.
8r	.	.	.	8r	.	8r	.	8a-X/	.	8ccc\	.	.	.	.	.	.	.	.	.	.	.	.	.	.	.	.	.	.	.	.	.	.	.	.	.	.	.	.	.	.	.	.	.	.
.	.	.	.	.	.	.	.	.	.	.	.	16D\	-se-	.	.	16a-\	-se-	16cc\	-se-	.	.	.	.	.	.	.	.	.	.	.	.	.	.	.	.	.	.	.	.	.	.	.	.	.
=43	=43	=43	=43	=43	=43	=43	=43	=43	=43	=43	=43	=43	=43	=43	=43	=43	=43	=43	=43	=43	=43	=43	=43	=43	=43	=43	=43	=43	=43	=43	=43	=43	=43	=43	=43	=43	=43	=43	=43	=43	=43	=43	=43	=43
!	!	!	!	!	!	!	!	!	!	!	!	!LO:PB:g=original	!	!	!	!	!	!	!	!	!	!	!	!	!	!	!	!	!	!	!	!	!	!	!	!	!	!	!	!	!	!	!	!
!	!	!	!	!	!	!	!	!	!	!	!	!	!	!LO:TX:a:t=2.	!	!	!	!	!	!	!LO:TX:a:t=5.	!	!LO:TX:a:t=5.	!	!LO:TX:a:t=5.	!	!LO:TX:a:t=4.	!	!LO:TX:a:t=4.	!	!LO:TX:a:t=4.	!	!LO:TX:a:t=4.	!	!LO:TX:a:t=4.	!	!LO:TX:a:t=2.	!	!LO:TX:a:t=4.	!	!LO:TX:a:t=2.	!	!LO:TX:a:t=4.	!
!	!	!	!	!	!	!	!	!	!	!	!	!	!	!LO:N:vis=0	!	!	!	!	!	!	!LO:N:vis=00	!	!LO:N:vis=00	!	!LO:N:vis=00	!	!LO:N:vis=00	!	!LO:N:vis=00	!	!LO:N:vis=00	!	!LO:N:vis=00	!	!LO:N:vis=00	!	!LO:N:vis=0	!	!LO:N:vis=00	!	!LO:N:vis=0	!	!LO:N:vis=00	!
8E-X\	.	2.r	.	8E-X\	.	8e-X\	.	8r	.	8r	.	2E-X\	-re-	1.r	.	4a-X\	-re-	4cc\	-re-	2.r	0.r	.	0.r	.	0.r	.	0.r	.	0.r	.	0.r	.	0.r	.	0.r	.	1.r	.	0.r	.	1.r	.	0.r	.
8r	.	.	.	8r	.	8r	.	8a-X/	.	8ccc\	.	.	.	.	.	.	.	.	.	.	.	.	.	.	.	.	.	.	.	.	.	.	.	.	.	.	.	.	.	.	.	.	.	.
8E-\	.	.	.	8E-\	.	8e-\	.	8r	.	8r	.	.	.	.	.	4f#X\	.	4an\	.	.	.	.	.	.	.	.	.	.	.	.	.	.	.	.	.	.	.	.	.	.	.	.	.	.
8r	.	.	.	8r	.	8r	.	8f#X/	.	8aan\	.	.	.	.	.	.	.	.	.	.	.	.	.	.	.	.	.	.	.	.	.	.	.	.	.	.	.	.	.	.	.	.	.	.
8D\	.	.	.	8D\	.	8d\	.	8r	.	8r	.	4D\	-re	.	.	4fn\	.	[4b-\	.	.	.	.	.	.	.	.	.	.	.	.	.	.	.	.	.	.	.	.	.	.	.	.	.	.
8r	.	.	.	8r	.	8r	.	8fn/	.	8bb-\	.	.	.	.	.	.	.	.	.	.	.	.	.	.	.	.	.	.	.	.	.	.	.	.	.	.	.	.	.	.	.	.	.	.
!	!	!	!	!	!	!LO:SIC:o=:v:custos	!	!	!	!	!	!	!	!	!	!	!	!	!	!	!	!	!	!	!	!	!	!	!	!	!	!	!	!	!	!	!	!	!	!	!	!	!	!
=44	=44	=44	=44	=44	=44	=44	=44	=44	=44	=44	=44	=44	=44	=44	=44	=44	=44	=44	=44	=44	=44	=44	=44	=44	=44	=44	=44	=44	=44	=44	=44	=44	=44	=44	=44	=44	=44	=44	=44	=44	=44	=44	=44	=44
!	!	!	!	!	!	!LO:PB:g=original	!	!	!	!LO:PB:g=original	!	!	!	!	!	!	!	!	!	!	!	!	!	!	!	!	!	!	!	!	!	!	!	!	!	!	!	!	!	!	!	!	!	!
8C/	.	2.r	.	8C/	.	8c\	.	8r	.	8r	.	2C/	mi-	.	.	2.e-X\	.	4b-\]	.	2.r	.	.	.	.	.	.	.	.	.	.	.	.	.	.	.	.	.	.	.	.	.	.	.	.
8r	.	.	.	8r	.	8r	.	8e-X/	.	8bb-\	.	.	.	.	.	.	.	.	.	.	.	.	.	.	.	.	.	.	.	.	.	.	.	.	.	.	.	.	.	.	.	.	.	.
!	!	!	!	!LO:PB:g=original	!	!	!	!	!	!	!	!	!	!	!	!	!	!	!	!	!	!	!	!	!	!	!	!	!	!	!	!	!	!	!	!	!	!	!	!	!	!	!	!
8C/	.	.	.	8C/	.	8c\	.	8r	.	8r	.	.	.	.	.	.	.	4g\	.	.	.	.	.	.	.	.	.	.	.	.	.	.	.	.	.	.	.	.	.	.	.	.	.	.
8r	.	.	.	8r	.	8r	.	8e-/	.	8gg\	.	.	.	.	.	.	.	.	.	.	.	.	.	.	.	.	.	.	.	.	.	.	.	.	.	.	.	.	.	.	.	.	.	.
8C-X/	.	.	.	8C-X/	.	8c-X\	.	8r	.	8r	.	4C-X/	-se-	.	.	.	.	[4a-X\	.	.	.	.	.	.	.	.	.	.	.	.	.	.	.	.	.	.	.	.	.	.	.	.	.	.
8r	.	.	.	8r	.	8r	.	8e-/	.	8aa-X\	.	.	.	.	.	.	.	.	.	.	.	.	.	.	.	.	.	.	.	.	.	.	.	.	.	.	.	.	.	.	.	.	.	.
=45	=45	=45	=45	=45	=45	=45	=45	=45	=45	=45	=45	=45	=45	=45	=45	=45	=45	=45	=45	=45	=45	=45	=45	=45	=45	=45	=45	=45	=45	=45	=45	=45	=45	=45	=45	=45	=45	=45	=45	=45	=45	=45	=45	=45
!	!	!	!	!	!	!	!	!LO:PB:g=original	!	!	!	!	!	!LO:PB:g=original	!	!LO:PB:g=original	!	!	!	!	!	!	!	!	!	!	!	!	!	!	!	!	!	!	!	!	!	!	!	!	!	!	!	!
8BB-X/	.	4r	.	8BB-X/	.	8B-/	.	8r	.	8r	.	2.BB-X/	-re-	4r	.	[2.d\	-re	4a-\]	.	2.r	.	.	.	.	.	.	.	.	.	.	.	.	.	.	.	.	4r	.	.	.	4r	.	.	.
8r	.	.	.	8r	.	8r	.	8d/	.	8aa-X\	.	.	.	.	.	.	.	.	.	.	.	.	.	.	.	.	.	.	.	.	.	.	.	.	.	.	.	.	.	.	.	.	.	.
8BB-/	.	4r	.	8BB-/	.	8B-/	.	8r	.	8r	.	.	.	4r	.	.	.	4f/	.	.	.	.	.	.	.	.	.	.	.	.	.	.	.	.	.	.	4r	.	.	.	4r	.	.	.
8r	.	.	.	8r	.	8r	.	8d/	.	8ff\	.	.	.	.	.	.	.	.	.	.	.	.	.	.	.	.	.	.	.	.	.	.	.	.	.	.	.	.	.	.	.	.	.	.
8BB-/	.	8.gg\L	.	8BB-/	.	8B-/	.	8r	.	8r	.	.	.	8.G/	mi-	.	.	4g/	-re	.	.	.	.	.	.	.	.	.	.	.	.	.	.	.	.	.	8.gg\L	.	.	.	8.gg\L	.	.	.
8r	.	.	.	8r	.	8r	.	8d/	.	8gg\	.	.	.	.	.	.	.	.	.	.	.	.	.	.	.	.	.	.	.	.	.	.	.	.	.	.	.	.	.	.	.	.	.	.
.	.	16gg\Jk	.	.	.	.	.	.	.	.	.	.	.	16G/	-se-	.	.	.	.	.	.	.	.	.	.	.	.	.	.	.	.	.	.	.	.	.	16gg\Jk	.	.	.	16gg\Jk	.	.	.
=46	=46	=46	=46	=46	=46	=46	=46	=46	=46	=46	=46	=46	=46	=46	=46	=46	=46	=46	=46	=46	=46	=46	=46	=46	=46	=46	=46	=46	=46	=46	=46	=46	=46	=46	=46	=46	=46	=46	=46	=46	=46	=46	=46	=46
!LO:PB:g=original	!	!	!	!	!	!	!	!	!	!	!	!	!	!	!	!	!	!	!	!	!	!	!	!	!	!	!	!	!	!	!	!	!	!	!	!	!	!	!	!	!	!	!	!
8AA/	.	4aa\	.	8AA/	.	8A/	.	8r	.	8r	.	2.AA/	-re	2A/	-re-	2.d\_	no-	2.f#X/	no-	2.r	.	.	.	.	.	.	.	.	.	.	.	.	.	.	.	.	4aa\	.	.	.	4aa\	.	.	.
8r	.	.	.	8r	.	8r	.	8d/	.	8ff#X\	.	.	.	.	.	.	.	.	.	.	.	.	.	.	.	.	.	.	.	.	.	.	.	.	.	.	.	.	.	.	.	.	.	.
8AA/	.	4dd\	.	8AA/	.	8A/	.	8r	.	8r	.	.	.	.	.	.	.	.	.	.	.	.	.	.	.	.	.	.	.	.	.	.	.	.	.	.	4dd\	.	.	.	4dd\	.	.	.
8r	.	.	.	8r	.	8r	.	8dd\	.	8ff#\	.	.	.	.	.	.	.	.	.	.	.	.	.	.	.	.	.	.	.	.	.	.	.	.	.	.	.	.	.	.	.	.	.	.
8AA/	.	4ff#X\	.	8AA/	.	8A/	.	8r	.	8r	.	.	.	4A/	-re	.	.	.	.	.	.	.	.	.	.	.	.	.	.	.	.	.	.	.	.	.	4ff#X\	.	.	.	4ff#X\	.	.	.
8r	.	.	.	8r	.	8r	.	8dd\	.	8ff#\	.	.	.	.	.	.	.	.	.	.	.	.	.	.	.	.	.	.	.	.	.	.	.	.	.	.	.	.	.	.	.	.	.	.
=47	=47	=47	=47	=47	=47	=47	=47	=47	=47	=47	=47	=47	=47	=47	=47	=47	=47	=47	=47	=47	=47	=47	=47	=47	=47	=47	=47	=47	=47	=47	=47	=47	=47	=47	=47	=47	=47	=47	=47	=47	=47	=47	=47	=47
8AA/	.	2aa\	.	8AA/	.	8A/	.	8r	.	8r	.	2.AA/	no-	2.A/	no-	4d\]	.	2.en/	.	2.r	2.r	.	2.r	.	2.r	.	4r	.	4r	.	4r	.	4r	.	4r	.	2.aa\	.	4r	.	2.aa\	.	4r	.
8r	.	.	.	8r	.	8r	.	8dd\	.	8ee\	.	.	.	.	.	.	.	.	.	.	.	.	.	.	.	.	.	.	.	.	.	.	.	.	.	.	.	.	.	.	.	.	.	.
8AA/	.	.	.	8AA/	.	8A/	.	8r	.	8r	.	.	.	.	.	8c#X/L	.	.	.	.	.	.	.	.	.	.	4r	.	4r	.	4r	.	4r	.	4r	.	.	.	4r	.	.	.	4r	.
8r	.	.	.	8r	.	8r	.	8dd\	.	8ee\	.	.	.	.	.	8Bn/J	.	.	.	.	.	.	.	.	.	.	.	.	.	.	.	.	.	.	.	f	.	.	.	.	.	.	.	.
!	!	!	!	!	!	!	!	!	!	!	!	!	!	!	!	!	!	!	!	!	!	!	!	!	!	!	!	!LO:DY:a	!	!	!	!	!	!	!	!	!	!	!	!	!	!	!	!
8AA/	.	8.aa\L	.	8AA/	.	8A/	.	8r	.	8r	.	.	.	.	.	4c#/	.	.	.	.	.	.	.	.	.	.	8.A/L	f	8.a\L	f	8.A\L	f	8.A\L	f	8.a\L	.	.	.	8.a/L	f	.	.	8.a/L	f
8r	.	.	.	8r	.	8r	.	8cc#X\	.	8ee\	.	.	.	.	.	.	.	.	.	.	.	.	.	.	.	.	.	.	.	.	.	.	.	.	.	.	.	.	.	.	.	.	.	.
.	.	16aa\Jk	.	.	.	.	.	.	.	.	.	.	.	.	.	.	.	.	.	.	.	.	.	.	.	.	16A/Jk	.	16a\Jk	.	16A\Jk	.	16A\Jk	.	16a\Jk	.	.	.	16a/Jk	.	.	.	16a/Jk	.
!	!	!	!	!	!	!	!	!	!	!	!	!	!	!	!	!	!	!	!	!	!LO:SIC:o=:v:custos	!	!	!	!	!	!	!	!	!	!	!	!	!	!	!	!	!	!	!	!	!	!	!
=48	=48	=48	=48	=48	=48	=48	=48	=48	=48	=48	=48	=48	=48	=48	=48	=48	=48	=48	=48	=48	=48	=48	=48	=48	=48	=48	=48	=48	=48	=48	=48	=48	=48	=48	=48	=48	=48	=48	=48	=48	=48	=48	=48	=48
!	!	!	!	!LO:PB:g=original	!	!LO:PB:g=original	!	!	!	!	!	!	!	!	!	!	!	!LO:PB:g=original	!	!	!LO:PB:g=original	!	!	!	!LO:PB:g=original	!	!	!	!	!	!	!	!LO:PB:g=original	!	!	!	!LO:PB:g=original	!	!	!	!LO:PB:g=original	!	!LO:PB:g=original	!
*	*	*	*	*	*	*	*	*	*	*	*	*	*	*	*	*	*	*	*	*	*	*	*	*	*	*	*	*	*	*	*	*	*	*	*2\right	*	*	*	*	*	*	*	*	*
4D\	.	2a\ 2dd\ 2ff#X\ 2aa\	f	(4D\	ff	(4d\	ff	8dd\	.	8dd\	.	2D/	-bis	2F#X/	-bis	2d\	-bis	2d/	-bis	2.r	4D\	f	2d/	f	2dd\	f	2A/	.	2a\	.	(4D\	.	(4D\	.	2dd\	.	2ff#X\	f	2dd\	.	2ff#X\	f	2a/	.
.	.	.	.	.	.	.	.	4dd\	.	4a\ 4ff#X\	.	.	.	.	.	.	.	.	.	.	.	.	.	.	.	.	.	.	.	.	.	.	.	.	.	.	.	.	.	.	.	.	.	.
4F#X\	.	.	.	4F#X\	.	4f#X\	.	.	.	.	.	.	.	.	.	.	.	.	.	.	4Fn\	.	.	.	.	.	.	.	.	.	4F#X\	.	4F#X\	.	.	.	.	.	.	.	.	.	.	.
.	.	.	.	.	.	.	.	4dd\	.	4a\ 4ff#\	.	.	.	.	.	.	.	.	.	.	.	.	.	.	.	.	.	.	.	.	.	.	.	.	.	.	.	.	.	.	.	.	.	.
4AA/	.	8.a\L 8.dd\ 8.ff#\ 8.aa\	.	4AA/)	.	4A/)	.	.	.	.	.	4r	.	4r	.	4r	.	4r	.	.	4AA/	.	4r	.	4r	.	8.A/L	.	8.a\L	.	4AA/)	.	4AA/)	.	8.dd\L	.	8.ff#\L	.	8.dd\L	.	8.ff#\L	.	8.a/L	.
.	.	.	.	.	.	.	.	8dd\	.	8ff#\	.	.	.	.	.	.	.	.	.	.	.	.	.	.	.	.	.	.	.	.	.	.	.	.	.	.	.	.	.	.	.	.	.	.
.	.	16a\Jk 16dd\ 16ff#\ 16aa\	.	.	.	.	.	.	.	.	.	.	.	.	.	.	.	.	.	.	.	.	.	.	.	.	16A/Jk	.	16a\Jk	.	.	.	.	.	16dd\Jk	.	16ff#\Jk	.	16dd\Jk	.	16ff#\Jk	.	16a/Jk	.
!	!	!	!	!	!	!	!	!	!	!	!	!	!	!	!	!	!	!	!	!	!	!	!	!	!	!	!	!	!	!	!	!	!	!	!	!	!	!	!LO:SIC:o=:v:custos	!	!	!	!	!
=49	=49	=49	=49	=49	=49	=49	=49	=49	=49	=49	=49	=49	=49	=49	=49	=49	=49	=49	=49	=49	=49	=49	=49	=49	=49	=49	=49	=49	=49	=49	=49	=49	=49	=49	=49	=49	=49	=49	=49	=49	=49	=49	=49	=49
!	!	!	!	!	!	!	!	!LO:PB:g=original	!	!LO:PB:g=original	!	!	!	!	!	!	!	!	!	!	!	!	!	!	!	!	!	!	!	!	!LO:PB:g=original	!	!	!	!	!	!	!	!LO:PB:g=original	!	!	!	!	!
!	!	!	!	!	!	!	!	!	!	!	!	!	!	!	!	!	!	!	!	!	!	!	!LO:TX:a:t=1.	!	!LO:TX:a:t=1.	!	!	!	!	!	!	!	!	!	!	!	!	!	!	!	!	!	!	!
4AA/	.	2a\ 2ee\ 2gg\ 2aa\	.	(4AA/	.	4A/	.	8ee\	.	8a\ 8gg\	.	2C#X/	A-	2A\	A-	2e\	A-	2g/	A-	2.r	4AA/	.	2.r	.	2.r	.	2A/	.	2a\	.	(4AA/	.	(4AA/	.	2ee\	.	2gg\	.	2ee\	.	2gg\	.	2a/	.
.	.	.	.	.	.	.	.	4ee\	.	4a\ 4gg\	.	.	.	.	.	.	.	.	.	.	.	.	.	.	.	.	.	.	.	.	.	.	.	.	.	.	.	.	.	.	.	.	.	.
4BBn/	.	.	.	4BBn/	.	4Bn/	.	.	.	.	.	.	.	.	.	.	.	.	.	.	4BBn/	.	.	.	.	.	.	.	.	.	4BBn/	.	4BBn/	.	.	.	.	.	.	.	.	.	.	.
.	.	.	.	.	.	.	.	4ee\	.	4a\ 4gg\	.	.	.	.	.	.	.	.	.	.	.	.	.	.	.	.	.	.	.	.	.	.	.	.	.	.	.	.	.	.	.	.	.	.
!	!	!LO:SIC:s=:v:=8.gg t=druga nuta od góry	!	!	!	!	!	!	!	!	!	!	!	!	!	!	!	!	!	!	!	!	!	!	!	!	!	!	!	!	!	!	!	!	!	!	!	!	!	!	!	!	!	!
4C#X/	.	8.a\L 8.ee\ 8.gg-X\ 8.aa\	.	4C#X/)	.	4c#X/	.	.	.	.	.	4C#/	-gnus	4A\	-gnus	4e\	-gnus	4g/	-gnus	.	4C#X/	.	.	.	.	.	8.A/L	.	8.a\L	.	4C#X/)	.	4C#X/)	.	8.ee\L	.	8.gg\L	.	8.ee\L	.	8.gg\L	.	8.a/L	.
.	.	.	.	.	.	.	.	8ee\	.	8a\ 8gg\	.	.	.	.	.	.	.	.	.	.	.	.	.	.	.	.	.	.	.	.	.	.	.	.	.	.	.	.	.	.	.	.	.	.
.	.	16a\Jk 16ee\ 16ggn\ 16aa\	.	.	.	.	.	.	.	.	.	.	.	.	.	.	.	.	.	.	.	.	.	.	.	.	16A/Jk	.	16a\Jk	.	.	.	.	.	16ee\Jk	.	16gg\Jk	.	16ee\Jk	.	16gg\Jk	.	16a/Jk	.
=50	=50	=50	=50	=50	=50	=50	=50	=50	=50	=50	=50	=50	=50	=50	=50	=50	=50	=50	=50	=50	=50	=50	=50	=50	=50	=50	=50	=50	=50	=50	=50	=50	=50	=50	=50	=50	=50	=50	=50	=50	=50	=50	=50	=50
!	!	!	!	!	!	!	!	!	!	!	!	!LO:PB:g=original	!	!	!	!	!	!	!	!	!	!	!	!	!	!	!LO:PB:g=original	!	!LO:PB:g=original	!	!	!	!	!	!	!	!	!	!	!	!	!	!	!
!	!	!LO:SIC:s=:v:=2ff# t=druga nuta od góry	!	!	!	!	!	!	!	!	!	!	!	!	!	!	!	!	!	!	!	!	!	!	!	!	!	!	!	!	!	!	!	!	!	!	!	!	!	!	!	!	!	!
4D\	.	2a\ 2dd\ 2ff\ 2aa\	.	(4D\	.	(4d\	.	8dd\	.	8a\ 8ff#X\	.	4D/	De-	4A\	De-	4d\	De-	4f#X/	De-	2.r	4D\	.	2d/	.	2dd\	.	2A/	.	2a\	.	(4D\	.	(4D\	.	2dd\	.	2ff#X\	.	2dd\	.	2ff#X\	.	2a/	.
.	.	.	.	.	.	.	.	4dd\	.	4a\ 4ff#\	.	.	.	.	.	.	.	.	.	.	.	.	.	.	.	.	.	.	.	.	.	.	.	.	.	.	.	.	.	.	.	.	.	.
4F#X\	.	.	.	4F#X\	.	4f#X\	.	.	.	.	.	4D/	-i	4A\	-i	4d\	-i	4f#/	-i	.	4F#X\	.	.	.	.	.	.	.	.	.	4F#X\	.	4F#X\	.	.	.	.	.	.	.	.	.	.	.
.	.	.	.	.	.	.	.	4dd\	.	4a\ 4ff#\	.	.	.	.	.	.	.	.	.	.	.	.	.	.	.	.	.	.	.	.	.	.	.	.	.	.	.	.	.	.	.	.	.	.
!	!	!LO:SIC:s=:v:=8.ff# t=druga nuta od góry	!	!	!	!	!	!	!	!	!	!	!	!	!	!	!	!	!	!	!	!	!	!	!	!	!	!	!	!	!	!	!	!	!	!	!	!	!	!	!	!	!	!
4AA/	.	8.a\L 8.dd\ 8.ff\ 8.aa\	.	4AA/)	.	4A/)	.	.	.	.	.	4D/	qui	4A\	qui	4d\	qui	4f#/	qui	.	4AA/	.	4r	.	4r	.	8.A/L	.	8.a\L	.	4AA/)	.	4AA/)	.	8.dd\L	.	8.ff#\L	.	8.dd\L	.	8.ff#\L	.	8.a/L	.
.	.	.	.	.	.	.	.	8dd\	.	8a\ 8ff#\	.	.	.	.	.	.	.	.	.	.	.	.	.	.	.	.	.	.	.	.	.	.	.	.	.	.	.	.	.	.	.	.	.	.
!	!	!LO:SIC:s=:v:=16ff# t=druga nuta od góry	!	!	!	!	!	!	!	!	!	!	!	!	!	!	!	!	!	!	!	!	!	!	!	!	!	!	!	!	!	!	!	!	!	!	!	!	!	!	!	!	!	!
.	.	16a\Jk 16dd\ 16ff\ 16aa\	.	.	.	.	.	.	.	.	.	.	.	.	.	.	.	.	.	.	.	.	.	.	.	.	16A/Jk	.	16a\Jk	.	.	.	.	.	16dd\Jk	.	16ff#\Jk	.	16dd\Jk	.	16ff#\Jk	.	16a/Jk	.
=51	=51	=51	=51	=51	=51	=51	=51	=51	=51	=51	=51	=51	=51	=51	=51	=51	=51	=51	=51	=51	=51	=51	=51	=51	=51	=51	=51	=51	=51	=51	=51	=51	=51	=51	=51	=51	=51	=51	=51	=51	=51	=51	=51	=51
!LO:PB:g=original	!	!	!	!	!	!	!	!	!	!	!	!	!	!LO:PB:g=original	!	!LO:PB:g=original	!	!	!	!	!	!	!	!	!	!	!	!	!	!	!	!	!	!	!	!	!	!	!	!	!	!	!	!
!	!	!	!	!	!	!	!	!	!	!	!	!	!	!	!	!	!	!	!	!	!	!	!LO:TX:a:t=1.	!	!LO:TX:a:t=1.	!	!	!	!	!	!	!	!	!	!	!	!	!	!	!	!	!	!	!
4AA/	.	2a\ 2ee\ 2gg\ 2aa\	.	(4AA/	.	4A/	.	8ee\	.	8a\ 8gg\	.	2.C#X/	tol-	2.A\	tol-	2.e\	tol-	2.g/	tol-	2.r	4AA/	.	2.r	.	2.r	.	2A/	.	2a\	.	(4AA/	.	(4AA/	.	2ee\	.	2gg\	.	2ee\	.	2gg\	.	2a/	.
.	.	.	.	.	.	.	.	4ee\	.	4a\ 4gg\	.	.	.	.	.	.	.	.	.	.	.	.	.	.	.	.	.	.	.	.	.	.	.	.	.	.	.	.	.	.	.	.	.	.
4BBn/	.	.	.	4BBn/	.	4Bn/	.	.	.	.	.	.	.	.	.	.	.	.	.	.	4BBn/	.	.	.	.	.	.	.	.	.	4BBn/	.	4BBn/	.	.	.	.	.	.	.	.	.	.	.
.	.	.	.	.	.	.	.	4ee\	.	4a\ 4gg\	.	.	.	.	.	.	.	.	.	.	.	.	.	.	.	.	.	.	.	.	.	.	.	.	.	.	.	.	.	.	.	.	.	.
4C#X/	.	8.a\L 8.ee\ 8.gg\	.	4C#X/)	.	4c#X/	.	.	.	.	.	.	.	.	.	.	.	.	.	.	4C#X/	.	.	.	.	.	8.A/L	.	8.a\L	.	4C#X/)	.	4C#X/)	.	8.ee\L	.	8.gg\L	.	8.ee\L	.	8.gg\L	.	8.a/L	.
.	.	.	.	.	.	.	.	8ee\	.	8a\ 8gg\	.	.	.	.	.	.	.	.	.	.	.	.	.	.	.	.	.	.	.	.	.	.	.	.	.	.	.	.	.	.	.	.	.	.
.	.	16a\Jk 16ee\ 16gg\	.	.	.	.	.	.	.	.	.	.	.	.	.	.	.	.	.	.	.	.	.	.	.	.	16A/Jk	.	16a\Jk	.	.	.	.	.	16ee\Jk	.	16gg\Jk	.	16ee\Jk	.	16gg\Jk	.	16a/Jk	.
=52	=52	=52	=52	=52	=52	=52	=52	=52	=52	=52	=52	=52	=52	=52	=52	=52	=52	=52	=52	=52	=52	=52	=52	=52	=52	=52	=52	=52	=52	=52	=52	=52	=52	=52	=52	=52	=52	=52	=52	=52	=52	=52	=52	=52
!	!	!	!	!	!	!	!	!	!	!	!	!	!	!	!	!	!	!	!	!	!	!	!	!	!	!	!	!	!	!	!	!	!	!	!	!LO:PB:g=original	!	!	!	!	!	!	!	!
*	*	*^	*	*	*	*	*	*	*	*	*	*	*	*	*	*	*	*	*	*	*	*	*	*	*	*	*	*	*	*	*	*	*	*	*	*	*	*	*	*	*	*	*	*
*tremolo	*	*	*	*	*	*	*	*	*tremolo	*	*	*	*	*	*	*	*	*	*	*	*	*	*	*	*	*	*	*	*	*	*	*	*	*	*	*	*	*	*	*	*	*	*	*2\right	*
8D\L	.	4ff#X/	[2.dd\	.	8D\L	.	8d\L	.	16dd\LL	.	16ff#X\KL	.	(4D\	-lis	8A\	-lis	2d\	-lis	(4f#X/	-lis	2.r	4D\	.	2d/	.	2dd\	.	4A/	.	4a\	.	(4D\	.	4D\	.	2dd\	.	4ff#X\	.	2dd\	.	4ff#X\	.	2dd\	.
.	.	.	.	.	.	.	.	.	16dd\	.	8dd\	.	.	.	.	.	.	.	.	.	.	.	.	.	.	.	.	.	.	.	.	.	.	.	.	.	.	.	.	.	.	.	.	.	.
8D\J	.	.	.	.	8D\	.	8d\J	.	16dd\	.	.	.	.	.	8d\	pec-	.	.	.	.	.	.	.	.	.	.	.	.	.	.	.	.	.	.	.	.	.	.	.	.	.	.	.	.	.
.	.	.	.	.	.	.	.	.	16dd\	.	16ff#\Jk	.	.	.	.	.	.	.	.	.	.	.	.	.	.	.	.	.	.	.	.	.	.	.	.	.	.	.	.	.	.	.	.	.	.
8E\L	.	4gg/	.	.	8E\	.	8e\L	.	16dd\	.	16gg\KL	.	4E\)	.	4d\	-ca-	.	.	4g/)	.	.	4E\	.	.	.	.	.	4r	.	4r	.	4E\	.	4E\	.	.	.	4gg\	.	.	.	4gg\	.	.	.
.	.	.	.	.	.	.	.	.	16dd\	.	8dd\	.	.	.	.	.	.	.	.	.	.	.	.	.	.	.	.	.	.	.	.	.	.	.	.	.	.	.	.	.	.	.	.	.	.
8E\J	.	.	.	.	8E\	.	8e\J	.	16dd\	.	.	.	.	.	.	.	.	.	.	.	.	.	.	.	.	.	.	.	.	.	.	.	.	.	.	.	.	.	.	.	.	.	.	.	.
.	.	.	.	.	.	.	.	.	16dd\	.	16gg\Jk	.	.	.	.	.	.	.	.	.	.	.	.	.	.	.	.	.	.	.	.	.	.	.	.	.	.	.	.	.	.	.	.	.	.
8F#X\L	.	4aa/	.	.	8F#X\	.	8f#X\L	.	16dd\	.	16aa\KL	.	4F#X\	pec-	4d\	-ta	4d\	pec-	4a\	pec-	.	4F#X\	.	8.d/L	.	8.dd\L	.	4r	.	4r	.	4F#X\)	.	4F#X\	.	8.dd\L	.	4aa\	.	8.dd\L	.	4aa\	.	8.dd\L	.
.	.	.	.	.	.	.	.	.	16dd\	.	8dd\	.	.	.	.	.	.	.	.	.	.	.	.	.	.	.	.	.	.	.	.	.	.	.	.	.	.	.	.	.	.	.	.	.	.
8F#\J	.	.	.	.	8F#\J	.	8f#\J	.	16dd\	.	.	.	.	.	.	.	.	.	.	.	.	.	.	.	.	.	.	.	.	.	.	.	.	.	.	.	.	.	.	.	.	.	.	.	.
.	.	.	.	.	.	.	.	.	16dd\JJ	.	16aa\Jk	.	.	.	.	.	.	.	.	.	.	.	.	16d/Jk	.	16dd\Jk	.	.	.	.	.	.	.	.	.	16dd\Jk	.	.	.	16dd\Jk	.	.	.	16dd\Jk	.
!	!	!	!	!	!	!	!LO:SIC:o=:v:custos	!	!	!	!	!	!	!	!	!	!	!	!	!	!	!	!	!	!	!	!	!	!	!	!	!	!	!	!	!	!	!	!	!	!	!	!	!	!
=53	=53	=53	=53	=53	=53	=53	=53	=53	=53	=53	=53	=53	=53	=53	=53	=53	=53	=53	=53	=53	=53	=53	=53	=53	=53	=53	=53	=53	=53	=53	=53	=53	=53	=53	=53	=53	=53	=53	=53	=53	=53	=53	=53	=53	=53
!	!	!	!	!	!LO:PB:g=original	!	!	!	!	!	!	!	!	!	!	!	!	!	!	!	!	!	!	!	!	!	!	!	!	!	!	!	!	!LO:PB:g=original	!	!	!	!	!	!	!	!	!	!LO:PB:g=original	!
!	!	!	!	!	!	!	!	!	!	!	!	!	!	!	!	!	!	!	!	!	!	!	!	!	!	!	!	!LO:TX:a:t=2.	!	!LO:TX:a:t=2.	!	!	!	!	!	!	!	!	!	!	!	!	!	!	!
!	!	!	!	!	!	!	!	!	!	!	!	!	!	!	!	!	!	!	!	!	!	!	!	!	!	!	!	!LO:N:vis=0	!	!LO:N:vis=0	!	!	!	!	!	!	!	!	!	!	!	!	!	!	!
8G\L	.	4bbn/	2.dd\_	.	8G\L	.	8g\L	.	16dd\LL	.	16bb-\KL	.	(4G\	-ca-	2d\	mun-	2d\	-ca-	4bn\	-ca-	2.r	4G\	.	2d/	.	2dd\	.	1.r	.	1.r	.	4G\	.	4G\	.	2dd\	.	4bbX\	.	2dd\	.	4bbn\	.	2dd\	.
.	.	.	.	.	.	.	.	.	16dd\	.	8dd\	.	.	.	.	.	.	.	.	.	.	.	.	.	.	.	.	.	.	.	.	.	.	.	.	.	.	.	.	.	.	.	.	.	.
8G\J	.	.	.	.	8G\	.	8g\J	.	16dd\	.	.	.	.	.	.	.	.	.	.	.	.	.	.	.	.	.	.	.	.	.	.	.	.	.	.	.	.	.	.	.	.	.	.	.	.
.	.	.	.	.	.	.	.	.	16dd\	.	16bb-\Jk	.	.	.	.	.	.	.	.	.	.	.	.	.	.	.	.	.	.	.	.	.	.	.	.	.	.	.	.	.	.	.	.	.	.
8E#X\L	.	4gg#X/	.	.	8E#X\	.	8e#X\L	.	16dd\	.	16gg#X\KL	.	4E#X\)	.	.	.	.	.	4g#X\	.	.	4E#X\	.	.	.	.	.	.	.	.	.	4E#X\	.	4E#X\	.	.	.	4gg#X\	.	.	.	4gg#X\	.	.	.
.	.	.	.	.	.	.	.	.	16dd\	.	8dd\	.	.	.	.	.	.	.	.	.	.	.	.	.	.	.	.	.	.	.	.	.	.	.	.	.	.	.	.	.	.	.	.	.	.
8E#\J	.	.	.	.	8E#\	.	8e#\J	.	16dd\	.	.	.	.	.	.	.	.	.	.	.	.	.	.	.	.	.	.	.	.	.	.	.	.	.	.	.	.	.	.	.	.	.	.	.	.
.	.	.	.	.	.	.	.	.	16dd\	.	16gg#\Jk	.	.	.	.	.	.	.	.	.	.	.	.	.	.	.	.	.	.	.	.	.	.	.	.	.	.	.	.	.	.	.	.	.	.
!	!	!	!	!	!	!	!	!	!	!	!LO:PB:g=original	!	!	!	!	!	!	!	!	!	!	!	!	!	!	!	!	!	!	!	!	!	!	!	!	!	!	!	!	!	!	!	!	!	!
8F#X\L	.	4aa/	.	.	8F#X\	.	8f#X\L	.	16dd\	.	16aa\KL	.	4F#X\	-ta	4d\	-di	4d\	-ta	8a\L	-ta	.	4F#X\	.	8.d/L	.	8.dd\L	.	.	.	.	.	4F#X\	.	4F#X\	.	8.dd\L	.	4aa\	.	8.dd\L	.	4aa\	.	8.dd\L	.
.	.	.	.	.	.	.	.	.	16dd\	.	8dd\	.	.	.	.	.	.	.	.	.	.	.	.	.	.	.	.	.	.	.	.	.	.	.	.	.	.	.	.	.	.	.	.	.	.
8F#\J	.	.	.	.	8F#\J	.	8f#\J	.	16dd\	.	.	.	.	.	.	.	.	.	8dd\J	.	.	.	.	.	.	.	.	.	.	.	.	.	.	.	.	.	.	.	.	.	.	.	.	.	.
.	.	.	.	.	.	.	.	.	16dd\JJ	.	16ff#X\Jk	.	.	.	.	.	.	.	.	.	.	.	.	16d/Jk	.	16dd\Jk	.	.	.	.	.	.	.	.	.	16dd\Jk	.	.	.	16dd\Jk	.	.	.	16dd\Jk	.
*	*	*	*	*	*	*	*	*	*Xtremolo	*	*	*	*	*	*	*	*	*	*	*	*	*	*	*	*	*	*	*	*	*	*	*	*	*	*	*	*	*	*	*	*	*	*	*	*
!	!	!	!	!	!	!	!	!	!	!	!	!	!	!	!	!	!	!	!	!	!	!	!	!	!	!	!	!	!	!	!	!	!	!	!	!	!	!	!	!LO:SIC:o:v:custos	!	!	!	!	!
=54	=54	=54	=54	=54	=54	=54	=54	=54	=54	=54	=54	=54	=54	=54	=54	=54	=54	=54	=54	=54	=54	=54	=54	=54	=54	=54	=54	=54	=54	=54	=54	=54	=54	=54	=54	=54	=54	=54	=54	=54	=54	=54	=54	=54	=54
!	!	!	!	!	!	!	!	!	!LO:PB:g=original	!	!	!	!	!	!	!	!	!	!LO:PB:g=original	!	!	!	!	!LO:PB:g=original	!	!	!	!	!	!	!	!	!	!	!	!	!	!LO:PB:g=original	!	!LO:PB:g=original	!	!LO:PB:g=original	!	!	!
*	*	*	*	*	*	*	*tremolo	*	*	*	*	*	*	*	*	*	*	*	*	*	*	*	*	*	*	*	*	*	*	*	*	*	*	*	*	*	*	*	*	*	*	*	*	*	*
2E\	.	2ggn/	4dd\]	.	8En\L	.	8en\L	.	16dd\LL	.	16ggn\KL	.	2En\	mun-	4r	.	2g\	mun-	(4dd\	mun-	2.r	2En\	.	4d/	.	4dd\	.	.	.	.	.	2En\	.	2En\	.	4dd\	.	2ggn\	.	4dd\	.	2ggn\	.	2gg\	.
.	.	.	.	.	.	.	.	.	16dd\	.	8bbn\	.	.	.	.	.	.	.	.	.	.	.	.	.	.	.	.	.	.	.	.	.	.	.	.	.	.	.	.	.	.	.	.	.	.
.	.	.	.	.	8E\	.	8e\	.	16dd\	.	.	.	.	.	.	.	.	.	.	.	.	.	.	.	.	.	.	.	.	.	.	.	.	.	.	.	.	.	.	.	.	.	.	.	.
.	.	.	.	.	.	.	.	.	16dd\JJ	.	16gg\Jk	.	.	.	.	.	.	.	.	.	.	.	.	.	.	.	.	.	.	.	.	.	.	.	.	.	.	.	.	.	.	.	.	.	.
.	.	.	4cc#X\	.	8E\	.	8e\	.	16cc#X\LL	.	16gg\KL	.	.	.	4r	.	.	.	4cc#X\)	.	.	.	.	4r	.	4r	.	.	.	.	.	.	.	.	.	4cc#X\	.	.	.	4cc#X\	.	.	.	.	.
.	.	.	.	.	.	.	.	.	16cc#\	.	8aa\	.	.	.	.	.	.	.	.	.	.	.	.	.	.	.	.	.	.	.	.	.	.	.	.	.	.	.	.	.	.	.	.	.	.
.	.	.	.	.	8E\J	.	8e\J	.	16cc#\	.	.	.	.	.	.	.	.	.	.	.	.	.	.	.	.	.	.	.	.	.	.	.	.	.	.	.	.	.	.	.	.	.	.	.	.
.	.	.	.	.	.	.	.	.	16cc#\JJ	.	16gg\Jk	.	.	.	.	.	.	.	.	.	.	.	.	.	.	.	.	.	.	.	.	.	.	.	.	.	.	.	.	.	.	.	.	.	.
*	*	*	*	*	*	*	*Xtremolo	*	*	*	*	*	*	*	*	*	*	*	*	*	*	*	*	*	*	*	*	*	*	*	*	*	*	*	*	*	*	*	*	*	*	*	*	*	*
8D\L	.	4ff#X/	4dd\	.	8D\L	.	8d\L	.	16dd\LL	.	16ff#X\KL	.	4D\	-di	8.d\	mi-	4f#X\	-di	4dd\	-di	.	4D\	.	4r	.	4r	.	.	.	.	.	4Dn\	.	4Dn\	.	4dd\	.	4ff#X\	.	4a/	.	4aa\	.	4ff#X\	.
.	.	.	.	.	.	.	.	.	16dd\	.	8aa\	.	.	.	.	.	.	.	.	.	.	.	.	.	.	.	.	.	.	.	.	.	.	.	.	.	.	.	.	.	.	.	.	.	.
8D\J	.	.	.	.	8D\J	.	8d\J	.	16dd\	.	.	.	.	.	.	.	.	.	.	.	.	.	.	.	.	.	.	.	.	.	.	.	.	.	.	.	.	.	.	.	.	.	.	.	.
.	.	.	.	.	.	.	.	.	16dd\JJ	.	16ddd\Jk	.	.	.	16d\	-se-	.	.	.	.	.	.	.	.	.	.	.	.	.	.	.	.	.	.	.	.	.	.	.	.	.	.	.	.	.
!	!	!	!	!	!	!	!	!	!	!	!	!	!LO:SIC:o=:v:custps	!	!	!	!	!	!	!	!	!LO:TX:b:t=V&colon;S&colon;	!	!	!	!	!	!	!	!	!	!	!	!	!	!	!	!	!	!	!	!	!	!	!
=55	=55	=55	=55	=55	=55	=55	=55	=55	=55	=55	=55	=55	=55	=55	=55	=55	=55	=55	=55	=55	=55	=55	=55	=55	=55	=55	=55	=55	=55	=55	=55	=55	=55	=55	=55	=55	=55	=55	=55	=55	=55	=55	=55	=55	=55
!	!	!	!	!	!	!	!	!	!	!	!	!	!LO:PB:g=original	!	!	!	!	!	!	!	!	!	!	!	!	!	!	!	!	!	!	!LO:PB:g=original	!	!	!	!	!	!	!	!	!	!	!	!	!
*	*	*	*	*	*	*	*tremolo	*	*tremolo	*	*	*	*	*	*	*	*	*	*	*	*	*	*	*	*	*	*	*	*	*	*	*	*	*	*	*	*	*	*	*	*	*	*	*	*
8Cn/L	.	2.dd/ 2.ff#X/	2.a\	.	8Cn/L	.	8cn/L	.	16f#X/LL 16a/	.	16ddd\KL	.	4r	.	4d\	-re-	4r	.	4r	.	2.r	2.Cn/	.	2.d/	.	2.dd\	.	2.A/	.	2.a\	.	2.Cn/	.	2.Cn/	.	2.f#X/	.	2.aa\	.	2.dd\	.	2.ff#X\	.	2.aa\	.
.	.	.	.	.	.	.	.	.	16f#/ 16a/	.	8dd\	.	.	.	.	.	.	.	.	.	.	.	.	.	.	.	.	.	.	.	.	.	.	.	.	.	.	.	.	.	.	.	.	.	.
8C/	.	.	.	.	8C/	.	8c/	.	16f#/ 16a/	.	.	.	.	.	.	.	.	.	.	.	.	.	.	.	.	.	.	.	.	.	.	.	.	.	.	.	.	.	.	.	.	.	.	.	.
.	.	.	.	.	.	.	.	.	16f#/ 16a/	.	8ddd\	.	.	.	.	.	.	.	.	.	.	.	.	.	.	.	.	.	.	.	.	.	.	.	.	.	.	.	.	.	.	.	.	.	.
8C/	.	.	.	.	8C/	.	8c/	.	16f#/ 16a/	.	.	.	4r	.	4d\	-re	4r	.	4r	.	.	.	.	.	.	.	.	.	.	.	.	.	.	.	.	.	.	.	.	.	.	.	.	.	.
.	.	.	.	.	.	.	.	.	16f#/ 16a/	.	8dd\	.	.	.	.	.	.	.	.	.	.	.	.	.	.	.	.	.	.	.	.	.	.	.	.	.	.	.	.	.	.	.	.	.	.
8C/	.	.	.	.	8C/	.	8c/	.	16f#/ 16a/	.	.	.	.	.	.	.	.	.	.	.	.	.	.	.	.	.	.	.	.	.	.	.	.	.	.	.	.	.	.	.	.	.	.	.	.
.	.	.	.	.	.	.	.	.	16f#/ 16a/	.	8ddd\	.	.	.	.	.	.	.	.	.	.	.	.	.	.	.	.	.	.	.	.	.	.	.	.	.	.	.	.	.	.	.	.	.	.
8C/	.	.	.	.	8C/	.	8c/	.	16f#/ 16a/	.	.	.	8.Cn/	mi-	4r	.	8.f#X\	mi-	8.a\	mi-	.	.	.	.	.	.	.	.	.	.	.	.	.	.	.	.	.	.	.	.	.	.	.	.	.
.	.	.	.	.	.	.	.	.	16f#/ 16a/	.	8dd\	.	.	.	.	.	.	.	.	.	.	.	.	.	.	.	.	.	.	.	.	.	.	.	.	.	.	.	.	.	.	.	.	.	.
8C/J	.	.	.	.	8C/J	.	8c/J	.	16f#/ 16a/	.	.	.	.	.	.	.	.	.	.	.	.	.	.	.	.	.	.	.	.	.	.	.	.	.	.	.	.	.	.	.	.	.	.	.	.
.	.	.	.	.	.	.	.	.	16f#/JJ 16a/	.	[16ddd\Jk	.	16C/	-se-	.	.	16f#\	-se-	16a\	-se-	.	.	.	.	.	.	.	.	.	.	.	.	.	.	.	.	.	.	.	.	.	.	.	.	.
!	!	!	!	!	!LO:SIC:o=custos	!	!	!	!	!	!	!	!	!	!	!	!LO:SIC:o=:v:custos	!	!	!	!	!	!	!	!	!	!	!	!	!	!	!	!	!	!	!	!	!	!	!	!	!	!	!	!
=56	=56	=56	=56	=56	=56	=56	=56	=56	=56	=56	=56	=56	=56	=56	=56	=56	=56	=56	=56	=56	=56	=56	=56	=56	=56	=56	=56	=56	=56	=56	=56	=56	=56	=56	=56	=56	=56	=56	=56	=56	=56	=56	=56	=56	=56
!	!	!	!	!	!LO:PB:g=original	!	!	!	!	!	!	!	!	!	!LO:PB:g=original	!	!LO:LB:g=original	!	!	!	!	!	!	!	!	!	!	!	!	!	!	!	!	!	!	!	!	!	!	!	!	!	!	!	!
!	!	!	!	!	!	!	!	!	!	!	!	!	!	!	!	!	!	!	!	!	!	!	!	!LO:TX:a:t=4.	!	!LO:TX:a:t=4.	!	!LO:TX:a:t=1.	!	!LO:TX:a:t=1.	!	!	!	!	!	!	!	!	!	!	!	!	!	!	!
!	!	!	!	!	!	!	!	!	!	!	!	!	!	!	!	!	!	!	!	!	!	!	!	!LO:N:vis=00	!	!LO:N:vis=00	!	!	!	!	!	!	!	!	!	!	!	!	!	!	!	!	!	!	!
8BBn/L	.	2gg/	2.dd\	.	8BBn/L	.	8Bn/L	.	16g/LL	.	16ddd\KL]	.	4BBn/	-re-	4r	.	4g\	-re-	4g\	-re-	2.r	2BBn/	.	0.r	.	0.r	.	2.r	.	2.r	.	2BBn/	.	2BBn/	.	2g/	.	2gg\	.	2.dd\	.	2gg\	.	2.ddd\	.
.	.	.	.	.	.	.	.	.	16g/	.	8dd\	.	.	.	.	.	.	.	.	.	.	.	.	.	.	.	.	.	.	.	.	.	.	.	.	.	.	.	.	.	.	.	.	.	.
8BB/	.	.	.	.	8BB/	.	8B/	.	16g/	.	.	.	.	.	.	.	.	.	.	.	.	.	.	.	.	.	.	.	.	.	.	.	.	.	.	.	.	.	.	.	.	.	.	.	.
.	.	.	.	.	.	.	.	.	16g/	.	8ddd\	.	.	.	.	.	.	.	.	.	.	.	.	.	.	.	.	.	.	.	.	.	.	.	.	.	.	.	.	.	.	.	.	.	.
8BB/	.	.	.	.	8BB/	.	8B/	.	16g/	.	.	.	8BB/	-re	8.d\	mi-	8g\	-re	8g\	-re	.	.	.	.	.	.	.	.	.	.	.	.	.	.	.	.	.	.	.	.	.	.	.	.	.
.	.	.	.	.	.	.	.	.	16g/	.	8dd\	.	.	.	.	.	.	.	.	.	.	.	.	.	.	.	.	.	.	.	.	.	.	.	.	.	.	.	.	.	.	.	.	.	.
8BB/J	.	.	.	.	8BB/J	.	8B/J	.	16g/	.	.	.	8r	.	.	.	8r	.	8r	.	.	.	.	.	.	.	.	.	.	.	.	.	.	.	.	.	.	.	.	.	.	.	.	.	.
.	.	.	.	.	.	.	.	.	16g/JJ	.	8ddd\	.	.	.	16d\	-se-	.	.	.	.	.	.	.	.	.	.	.	.	.	.	.	.	.	.	.	.	.	.	.	.	.	.	.	.	.
*	*	*	*	*	*	*	*Xtremolo	*	*Xtremolo	*	*	*	*	*	*	*	*	*	*	*	*	*	*	*	*	*	*	*	*	*	*	*	*	*	*	*	*	*	*	*	*	*	*	*	*
8BB-X/L	.	4gg#X/	.	.	8BB-X/L	.	8B-X/L	.	16g#X/LL	.	.	.	8.BB-X/	mi-	4d\	-re-	8.g#X\	mi-	8.dd\	mi-	.	4BB-X/	.	.	.	.	.	.	.	.	.	4BB-X/	.	4BB-X/	.	4g#X/	.	4dd\	.	.	.	4gg#X\	.	.	.
.	.	.	.	.	.	.	.	.	16g#/	.	8dd\	.	.	.	.	.	.	.	.	.	.	.	.	.	.	.	.	.	.	.	.	.	.	.	.	.	.	.	.	.	.	.	.	.	.
8BB-/J	.	.	.	.	8BB-/J	.	8B-/J	.	16g#/	.	.	.	.	.	.	.	.	.	.	.	.	.	.	.	.	.	.	.	.	.	.	.	.	.	.	.	.	.	.	.	.	.	.	.	.
.	.	.	.	.	.	.	.	.	16g#/JJ	.	16ddd\Jk	.	16BB-/	-se-	.	.	16g#\	-se-	16dd\	-se-	.	.	.	.	.	.	.	.	.	.	.	.	.	.	.	.	.	.	.	.	.	.	.	.	.
!	!	!	!	!	!	!	!	!	!	!	!LO:SIC:o=:v:custos	!	!	!	!	!	!	!	!	!	!	!	!	!	!	!	!	!	!	!	!	!	!	!	!	!	!	!	!	!	!	!	!	!	!
=57	=57	=57	=57	=57	=57	=57	=57	=57	=57	=57	=57	=57	=57	=57	=57	=57	=57	=57	=57	=57	=57	=57	=57	=57	=57	=57	=57	=57	=57	=57	=57	=57	=57	=57	=57	=57	=57	=57	=57	=57	=57	=57	=57	=57	=57
!	!	!	!	!	!	!	!	!	!LO:PB:g=original	!	!LO:PB:g=original	!	!	!	!	!	!	!	!	!	!	!	!	!	!	!	!	!	!	!	!	!	!	!	!	!	!	!	!	!	!	!	!	!	!
*	*	*	*	*	*	*	*tremolo	*	*	*	*	*	*	*	*	*	*	*	*	*	*	*	*	*	*	*	*	*	*	*	*	*	*	*	*	*	*	*	*	*	*	*	*	*	*
8AA/L	.	2.aa/	2.cc#X\	.	8AA/L	.	8A/L	.	16a/LL	.	16ccc#X\KL	.	4AA/	-re-	4e\	-re	4a\	-re-	4cc#X\	-re-	2.r	2.AA/	.	.	.	.	.	2.A/	.	2.a\	.	[2.AA/	.	2.AA/	.	2a/	.	2cc#X\	.	2cc#X\	.	2.aa\	.	2.ccc#X\	.
.	.	.	.	.	.	.	.	.	16c/ 16e/	.	8aa\	.	.	.	.	.	.	.	.	.	.	.	.	.	.	.	.	.	.	.	.	.	.	.	.	.	.	.	.	.	.	.	.	.	.
8AA/	.	.	.	.	8AA/	.	8A/	.	16c/ 16e/	.	.	.	.	.	.	.	.	.	.	.	.	.	.	.	.	.	.	.	.	.	.	.	.	.	.	.	.	.	.	.	.	.	.	.	.
.	.	.	.	.	.	.	.	.	16c/JJ 16e/	.	8ccc#\	.	.	.	.	.	.	.	.	.	.	.	.	.	.	.	.	.	.	.	.	.	.	.	.	.	.	.	.	.	.	.	.	.	.
*	*	*	*	*	*	*	*	*	*tremolo	*	*	*	*	*	*	*	*	*	*	*	*	*	*	*	*	*	*	*	*	*	*	*	*	*	*	*	*	*	*	*	*	*	*	*	*
8AA/	.	.	.	.	8AA/	.	8A/	.	16c/LL 16e/	.	.	.	8AA/	-re	8.e\	mi-	8a\	-re	8cc#\	-re	.	.	.	.	.	.	.	.	.	.	.	.	.	.	.	.	.	.	.	.	.	.	.	.	.
.	.	.	.	.	.	.	.	.	16c/ 16e/	.	8eee\	.	.	.	.	.	.	.	.	.	.	.	.	.	.	.	.	.	.	.	.	.	.	.	.	.	.	.	.	.	.	.	.	.	.
8AA/	.	.	.	.	8AA/	.	8A/	.	16c/ 16e/	.	.	.	8r	.	.	.	8r	.	8r	.	.	.	.	.	.	.	.	.	.	.	.	.	.	.	.	.	.	.	.	.	.	.	.	.	.
.	.	.	.	.	.	.	.	.	16c/ 16e/	.	8ccc#\	.	.	.	16e\	-se-	.	.	.	.	.	.	.	.	.	.	.	.	.	.	.	.	.	.	.	.	.	.	.	.	.	.	.	.	.
8AA/	.	.	.	.	8AA/	.	8A/	.	16c/ 16e/	.	.	.	4r	.	8.c#X\	-re-	4r	.	4r	.	.	.	.	.	.	.	.	.	.	.	.	.	.	.	.	4r	.	4r	.	4r	.	.	.	.	.
.	.	.	.	.	.	.	.	.	16c/ 16e/	.	8aa\	.	.	.	.	.	.	.	.	.	.	.	.	.	.	.	.	.	.	.	.	.	.	.	.	.	.	.	.	.	.	.	.	.	.
8AA/J	.	.	.	.	8AA/J	.	8A/J	.	16c/ 16e/	.	.	.	.	.	.	.	.	.	.	.	.	.	.	.	.	.	.	.	.	.	.	.	.	.	.	.	.	.	.	.	.	.	.	.	.
.	.	.	.	.	.	.	.	.	16c/JJ 16e/	.	16aa\Jk	.	.	.	16A\	-re	.	.	.	.	.	.	.	.	.	.	.	.	.	.	.	.	.	.	.	.	.	.	.	.	.	.	.	.	.
!LO:TX:b:t=V&colon;S&colon;	!	!	!	!	!	!	!	!	!	!	!	!	!	!	!	!	!	!	!	!	!	!	!	!	!	!	!	!	!	!	!	!	!	!	!LO:SIC:o=:v:custos	!	!	!	!	!	!	!	!	!	!
=58	=58	=58	=58	=58	=58	=58	=58	=58	=58	=58	=58	=58	=58	=58	=58	=58	=58	=58	=58	=58	=58	=58	=58	=58	=58	=58	=58	=58	=58	=58	=58	=58	=58	=58	=58	=58	=58	=58	=58	=58	=58	=58	=58	=58	=58
!LO:LB:g=original	!	!	!	!	!	!	!	!	!	!	!	!	!	!	!	!	!	!	!	!	!	!	!	!	!	!	!	!LO:PB:g=original	!	!LO:PB:g=original	!	!	!	!	!	!LO:LB:g=original	!	!	!	!	!	!	!	!	!
8AA/L	.	2.gg#X/	2.bn\ 2.dd\	.	8AA/L	.	8A/L	.	16d/LL 16fn/	.	8bn\ 8gg#X\	.	2.AA/	no-	2.d\	no-	2.g#X\	no-	2.bn\	no-	2.r	2.AA/	.	.	.	.	.	2.A/	.	2.a\	.	2.AA/_	.	2.fn\	.	2.dd\	.	2.gg#X\	.	2.g#X/	.	2.dd\	.	2.gg#X\	.
.	.	.	.	.	.	.	.	.	16d/ 16f/	.	.	.	.	.	.	.	.	.	.	.	.	.	.	.	.	.	.	.	.	.	.	.	.	.	.	.	.	.	.	.	.	.	.	.	.
8AA/	.	.	.	.	8AA/	.	8A/	.	16d/ 16f/	.	4b\ 4gg#\	.	.	.	.	.	.	.	.	.	.	.	.	.	.	.	.	.	.	.	.	.	.	.	.	.	.	.	.	.	.	.	.	.	.
.	.	.	.	.	.	.	.	.	16d/ 16f/	.	.	.	.	.	.	.	.	.	.	.	.	.	.	.	.	.	.	.	.	.	.	.	.	.	.	.	.	.	.	.	.	.	.	.	.
8AA/	.	.	.	.	8AA/	.	8A/	.	16d/ 16f/	.	.	.	.	.	.	.	.	.	.	.	.	.	.	.	.	.	.	.	.	.	.	.	.	.	.	.	.	.	.	.	.	.	.	.	.
.	.	.	.	.	.	.	.	.	16d/ 16f/	.	.	.	.	.	.	.	.	.	.	.	.	.	.	.	.	.	.	.	.	.	.	.	.	.	.	.	.	.	.	.	.	.	.	.	.
8AA/	.	.	.	.	8AA/	.	8A/	.	16d/ 16f/	.	4b\ 4gg#\	.	.	.	.	.	.	.	.	.	.	.	.	.	.	.	.	.	.	.	.	.	.	.	.	.	.	.	.	.	.	.	.	.	.
.	.	.	.	.	.	.	.	.	16d/ 16f/	.	.	.	.	.	.	.	.	.	.	.	.	.	.	.	.	.	.	.	.	.	.	.	.	.	.	.	.	.	.	.	.	.	.	.	.
8AA/	.	.	.	.	8AA/	.	8A/	.	16d/ 16f/	.	.	.	.	.	.	.	.	.	.	.	.	.	.	.	.	.	.	.	.	.	.	.	.	.	.	.	.	.	.	.	.	.	.	.	.
.	.	.	.	.	.	.	.	.	16d/ 16f/	.	.	.	.	.	.	.	.	.	.	.	.	.	.	.	.	.	.	.	.	.	.	.	.	.	.	.	.	.	.	.	.	.	.	.	.
8AA/J	.	.	.	.	8AA/J	.	8A/J	.	16d/ 16f/	.	8b\ 8gg#\	.	.	.	.	.	.	.	.	.	.	.	.	.	.	.	.	.	.	.	.	.	.	.	.	.	.	.	.	.	.	.	.	.	.
.	.	.	.	.	.	.	.	.	16d/JJ 16f/	.	.	.	.	.	.	.	.	.	.	.	.	.	.	.	.	.	.	.	.	.	.	.	.	.	.	.	.	.	.	.	.	.	.	.	.
!	!	!	!	!	!	!	!	!	!	!	!	!	!	!	!	!	!	!	!	!	!	!	!	!	!	!	!	!	!	!	!	!	!	!LO:SIC:o=:v:cauda	!	!	!	!	!	!	!	!	!	!LO:SIC:o=:v:custos	!
*	*	*v	*v	*	*	*	*	*	*	*	*	*	*	*	*	*	*	*	*	*	*	*	*	*	*	*	*	*	*	*	*	*	*	*	*	*	*	*	*	*	*	*	*	*	*
=59	=59	=59	=59	=59	=59	=59	=59	=59	=59	=59	=59	=59	=59	=59	=59	=59	=59	=59	=59	=59	=59	=59	=59	=59	=59	=59	=59	=59	=59	=59	=59	=59	=59	=59	=59	=59	=59	=59	=59	=59	=59	=59	=59	=59
!	!	!	!	!	!LO:PB:g=original	!	!LO:PB:g=original	!	!	!	!	!	!	!	!	!	!	!	!	!	!	!	!	!	!	!	!	!	!	!	!	!	!	!LO:PB:g=original	!	!	!	!	!	!	!	!	!	!
8AA/L	.	2.a\ 2.cc#X\ 2.ee\ 2.aa\	.	8AA/L	.	8A/L	.	16c#X/LL 16e/	.	8a\ 8aa\	.	2AA/	-bis	2c#X\	-bis	2a\	-bis	2a\	-bis	2.r	2.AA/	.	.	.	.	.	2.A/	.	2.a\	.	2.AA/_	.	2.e\	.	2.cc#X\	.	2.aa\	.	2.a/	.	2.cc#X\	.	2.aa\	.
.	.	.	.	.	.	.	.	16c#/ 16e/	.	.	.	.	.	.	.	.	.	.	.	.	.	.	.	.	.	.	.	.	.	.	.	.	.	.	.	.	.	.	.	.	.	.	.	.
8AA/	.	.	.	8AA/	.	8A/	.	16c#/ 16e/	.	4a\ 4aa\	.	.	.	.	.	.	.	.	.	.	.	.	.	.	.	.	.	.	.	.	.	.	.	.	.	.	.	.	.	.	.	.	.	.
.	.	.	.	.	.	.	.	16c#/ 16e/	.	.	.	.	.	.	.	.	.	.	.	.	.	.	.	.	.	.	.	.	.	.	.	.	.	.	.	.	.	.	.	.	.	.	.	.
8AA/	.	.	.	8AA/	.	8A/	.	16c#/ 16e/	.	.	.	.	.	.	.	.	.	.	.	.	.	.	.	.	.	.	.	.	.	.	.	.	.	.	.	.	.	.	.	.	.	.	.	.
.	.	.	.	.	.	.	.	16c#/ 16e/	.	.	.	.	.	.	.	.	.	.	.	.	.	.	.	.	.	.	.	.	.	.	.	.	.	.	.	.	.	.	.	.	.	.	.	.
8AA/	.	.	.	8AA/	.	8A/	.	16c#/ 16e/	.	4a\ 4aa\	.	.	.	.	.	.	.	.	.	.	.	.	.	.	.	.	.	.	.	.	.	.	.	.	.	.	.	.	.	.	.	.	.	.
.	.	.	.	.	.	.	.	16c#/ 16e/	.	.	.	.	.	.	.	.	.	.	.	.	.	.	.	.	.	.	.	.	.	.	.	.	.	.	.	.	.	.	.	.	.	.	.	.
8AA/	.	.	.	8AA/	.	8A/	.	16c#/ 16e/	.	.	.	4r	.	4r	.	4r	.	4r	.	.	.	.	.	.	.	.	.	.	.	.	.	.	.	.	.	.	.	.	.	.	.	.	.	.
.	.	.	.	.	.	.	.	16c#/ 16e/	.	.	.	.	.	.	.	.	.	.	.	.	.	.	.	.	.	.	.	.	.	.	.	.	.	.	.	.	.	.	.	.	.	.	.	.
8AA/J	.	.	.	8AA/J	.	8A/J	.	16c#/ 16e/	.	8a\ 8aa\	.	.	.	.	.	.	.	.	.	.	.	.	.	.	.	.	.	.	.	.	.	.	.	.	.	.	.	.	.	.	.	.	.	.
.	.	.	.	.	.	.	.	16c#/JJ 16e/	.	.	.	.	.	.	.	.	.	.	.	.	.	.	.	.	.	.	.	.	.	.	.	.	.	.	.	.	.	.	.	.	.	.	.	.
*Xtremolo	*	*	*	*	*	*	*	*Xtremolo	*	*	*	*	*	*	*	*	*	*	*	*	*	*	*	*	*	*	*	*	*	*	*	*	*	*	*	*	*	*	*	*	*	*	*	*
=60	=60	=60	=60	=60	=60	=60	=60	=60	=60	=60	=60	=60	=60	=60	=60	=60	=60	=60	=60	=60	=60	=60	=60	=60	=60	=60	=60	=60	=60	=60	=60	=60	=60	=60	=60	=60	=60	=60	=60	=60	=60	=60	=60	=60
!	!	!LO:SIC:s=:v:=2.cc# t=trzecia nuta od góry	!	!	!	!	!	!	!	!	!	!	!	!	!	!	!	!	!	!	!	!	!	!	!	!	!	!	!	!	!	!	!	!	!	!	!	!	!	!	!	!	!	!
*	*	*	*	*	*	*	*	*	*	*2\right	*	*	*	*	*	*	*	*	*	*	*	*	*	*	*	*	*	*	*	*	*	*	*	*	*	*	*	*	*	*	*	*	*	*
2.AA/;	.	2.a;\ 2.cc\ 2.ee\ 2.aa\	.	2.AA;/	.	2.A;/	.	2.c#X;/ 2.e/	.	2.a;\ 2.aa\	.	2.r;	.	2.r;	.	2.r;	.	2.r;	.	2.r;	2.AA;/	.	2.r;	.	2.r;	.	2.A;/	.	2.a;\	.	2.AA;/]	.	2.e;\	.	2.cc#X;\	.	2.aa;\	.	2.a;/	.	2.cc#X;\	.	2.aa;\	.
!	!	!	!	!	!	!	!	!	!	!	!	!	!	!	!	!	!	!	!	!	!	!	!	!	!	!	!LO:SIC:o=:v:znak powtórki	!	!LO:SIC:o=:v:znak powtó©ki i dopiski ręczne	!	!LO:TX:t=Verte Dona	!	!	!	!	!	!	!	!	!	!	!	!	!
==	==	==	==	==	==	==	==	==	==	==	==	==	==	==	==	==	==	==	==	==	==	==	==	==	==	==	==	==	==	==	==	==	==	==	==	==	==	==	==	==	==	==	==	==
*-	*-	*-	*-	*-	*-	*-	*-	*-	*-	*-	*-	*-	*-	*-	*-	*-	*-	*-	*-	*-	*-	*-	*-	*-	*-	*-	*-	*-	*-	*-	*-	*-	*-	*-	*-	*-	*-	*-	*-	*-	*-	*-	*-	*-
!!!system-decoration: [(s1,s2,s3,s4,s5,s6,s7)][(s8,s9,s10,s11,s12)][(s13)][(s14,s15,s16,s17)][(s18,s19,s20,s21)]{(s22,s23)}
!!!RDF**kern: > = above
!!!RDF**kern: < = below
!!!EED: Leszek Kubiak
!!!EST: 2020-06-08
!!!ENC: Andrzej Borzym
!!!END: 2020-04-06
